!!!!SEGMENT: pl-wnifc--4172-n_zelenski-wladyslaw--roma-parafraza-na-dwa-tematy-f-chopina-op-65.krn
!!!cenid: 18xx:3859
!!!COM: Żeleński, Władysław
!!!COM-rismID: pe41024455
!!!CDT: 1837/07/06-1921/01/23
!!!CNT: Polish
!!!OTL: Roma/Parafraza na dwa tematy F. Chopina op. 65
!!!PDT:
!!!AGN:
!!!SMS-siglum: PL-Wnifc
!!!SMS-shelfmark: 4172/n
!!!SMS-shelfwork: W
!!!SMS-variant:
!!!SMS-altvar:
!!!NIFC-rismSourceID: 1001143932
!!!NIFC-rismChildID: 1001143932
!!!NIFC-islandoraID: nifc:212275
!!!URL-pdf-islandora: https://repozytorium.nifc.pl/islandora/object/nifc%3A212275/datastream/PDF/view
!!!URL-scan: https://polish.musicsources.pl/pl/lokalizacje/galeria/druki-muzyczne/16834 @EN{Scan on Polish Music Sources Website} @PL{Skany w portalu Dziedzictwo Muzyki Polskiej w otwartym dostępie}
!!!ONB-nifc:
!!!AIN: 2 piano
!!!key: c
**kern	**fing	**dynam	**kern	**dynam
*part2	*part2	*part2	*part1	*part1
*staff2	*	*	*staff1	*
*I"Fortepian.	*	*	*I"Fortepian.	*
*I'pf	*	*	*I'pf	*
*ICklav	*	*	*ICklav	*
*Ipiano	*	*	*Ipiano	*
*clefF4	*	*	*clefG2	*
*k[b-e-a-]	*	*	*k[b-e-a-]	*
*c:	*	*	*c:	*
*M4/4	*	*	*M4/4	*
*met(c)	*	*	*met(c)	*
=1	=1	=1	=1	=1
!	!	!	!LO:TX:a:B:t=Moderato.	!
*ped	*	*	*	*
4AAA-/ 4AA-	.	.	4r	ff
[2.A-\ [2.c [2.d [2.f	.	.	2ff\ 2ccc 2ddd 2fff	.
.	.	.	8.d/L 8.dd	.
.	.	.	16d/Jk 16dd	.
=2	=2	=2	=2	=2
*Xped	*	*	*	*
4A-\] 4c] 4d] 4f]	.	.	4d/ 4dd	.
2AA-/ 2D	.	.	2c/ 2f [2dd	.
4AA-/ 4D	.	.	8.c/L 8.f#X 8.dd]	.
.	.	.	16dd/Jk	.
=3	=3	=3	=3	=3
4GG/ 4D	.	.	4Bn/ 4g 4dd	.
*tremolo	*	*	*	*
32GGG/LLL	.	.	4r	>
32GG/	.	.	.	.
32GGG/	.	.	.	.
32GG/	.	.	.	.
32GGG/	.	.	.	.
32GG/	.	.	.	.
32GGG/	.	.	.	.
32GG/	.	.	.	.
32GGG/	.	.	4r	.
32GG/	.	.	.	.
32GGG/	.	.	.	.
32GG/	.	.	.	.
32GGG/	.	.	.	.
32GG/	.	.	.	.
32GGG/	.	.	.	.
32GG/	.	.	.	.
32GGG/	.	.	8.G/L 8.g	.
32GG/	.	.	.	.
32GGG/	.	.	.	.
32GG/	.	.	.	.
32GGG/	.	.	.	.
32GG/	.	.	.	.
32GGG/	.	.	16G/Jk 16g	]]
32GG/JJJ	.	.	.	.
*Xtremolo	*	*	*	*
=4	=4	=4	=4	=4
(>8qqGGG/	.	.	.	.
*	*	*	*tremolo	*
4GG/)	.	.	32Bn/LLL 32g	p
.	.	.	32G/	.
.	.	.	32B/ 32g	.
.	.	.	32G/	.
.	.	.	32B/ 32g	.
.	.	.	32G/	.
.	.	.	32B/ 32g	.
.	.	.	32G/JJJ	.
([4AA-/	.	.	32c/LLL 32g	<
.	.	.	32G/	.
.	.	.	32c/ 32g	.
.	.	.	32G/	.
.	.	.	32c/ 32g	.
.	.	.	32G/	.
.	.	.	32c/ 32g	.
.	.	.	32G/	.
8.AA-/L]	.	.	32c/ 32g	.
.	.	.	32G/	.
.	.	.	32c/ 32g	.
.	.	.	32G/	.
.	.	.	32c/ 32g	.
.	.	.	32G/	.
16GG/Jk	.	.	32c/ 32g	.
.	.	.	32G/JJJ	.
4FF/	.	.	32c/LLL 32a-	.
.	.	.	32A-/	.
.	.	.	32c/ 32a-	.
.	.	.	32A-/	.
.	.	.	32c/ 32a-	.
.	.	.	32A-/	.
.	.	.	32c/ 32a-	.
.	.	.	32A-/JJJ	.
=5	=5	=5	=5	=5
4EE-/)	.	.	32c/LLL 32g-X 32an	.
.	.	.	32An/	.
.	.	.	32c/ 32g- 32a	.
.	.	.	32A/	.
.	.	.	32c/ 32g- 32a	.
.	.	.	32A/	.
.	.	.	32c/ 32g- 32a	.
.	.	.	32A/	.
[4FF/	.	.	32c/ 32g- 32a	.
.	.	.	32A/	.
.	.	.	32c/ 32g- 32a	.
.	.	.	32A/	.
.	.	.	32c/ 32g- 32a	.
.	.	.	32A/	.
.	.	.	32c/ 32g- 32a	.
.	.	.	32A/	.
8.FF/L]	.	.	32c/ 32g- 32a	.
.	.	.	32A/	.
.	.	.	32c/ 32g- 32a	.
.	.	.	32A/	.
.	.	.	32c/ 32g- 32a	.
.	.	.	32A/	.
16EE-/Jk	.	.	32c/ 32g- 32a	.
.	.	.	32A/JJJ	.
[4DD-X/	.	.	32d-X/LLL 32g- 32b-	.
.	.	.	32B-/	.
.	.	.	32d-/ 32g- 32b-	.
.	.	.	32B-/	.
.	.	.	32d-/ 32g- 32b-	.
.	.	.	32B-/	.
.	.	.	32d-/ 32g- 32b-	.
.	.	.	32B-/JJJ	.
!LO:LB:g=original	!	!	!	!
=6	=6	=6	=6	=6
4DD-/]	.	.	32e-/LLL 32g 32bn	.
.	.	.	32Bn/	.
.	.	.	32e-/ 32g 32b	.
.	.	.	32B/	.
.	.	.	32e-/ 32g 32b	.
.	.	.	32B/	.
.	.	.	32e-/ 32g 32b	.
.	.	.	32B/	.
([4EE-/	.	.	32e-/ 32g 32b	<
.	.	.	32B/	.
.	.	.	32e-/ 32g 32b	.
.	.	.	32B/	.
.	.	.	32e-/ 32g 32b	.
.	.	.	32B/	.
.	.	.	32e-/ 32g 32b	.
.	.	.	32B/	.
8.EE-/L]	.	.	32e-/ 32g 32b	.
.	.	.	32B/	.
.	.	.	32e-/ 32g 32b	.
.	.	.	32B/	.
.	.	.	32e-/ 32g 32b	.
.	.	.	32B/	.
16DD-X/Jk	.	.	32e-/ 32g 32b	.
.	.	.	32B/JJJ	.
4CC/)	.	.	32e-/LLL 32a- 32cc	.
.	.	.	32c/	.
.	.	.	32e-/ 32a- 32cc	.
.	.	.	32c/	.
.	.	.	32e-/ 32a- 32cc	.
.	.	.	32c/	.
.	.	.	32e-/ 32a- 32cc	.
.	.	.	32c/JJJ	[[
=7	=7	=7	=7	=7
!	!	!	!LO:TX:t=P:problem: Verovio błędnie wyświetla tremolo	!
[2BBBn/ [2BBn	.	.	32f/LLL 32a- 32ddn	.
.	.	.	32dn/	.
.	.	.	32f/ 32a- 32ddn	.
.	.	.	32dn/	.
.	.	.	32f/ 32a- 32ddn	.
.	.	.	32dn/	.
.	.	.	32f/ 32a- 32ddn	.
.	.	.	32dn/	.
.	.	.	32f/ 32a- 32ddn	.
.	.	.	32dn/	.
.	.	.	32f/ 32a- 32ddn	.
.	.	.	32dn/	.
.	.	.	32f/ 32a- 32ddn	.
.	.	.	32dn/	.
.	.	.	32f/ 32a- 32ddn	.
.	.	.	[32dn/JJJ	.
8BBB/] 8BB]	.	.	8dn/] 8f 8a- 8ddny	.
8r	.	.	8r	.
!	!	!	!LO:TX:b:i:t=dolce	!
(4a-\	.	.	(4aa-\ 4aaa-	.
*	*	*	*Xtremolo	*
=8	=8	=8	=8	=8
4.g\	.	.	4.gg\ 4.ggg	.
8f\	.	.	8ff\ 8fff	.
4.e-\)	.	.	4.ee-\) 4.eee-	.
(8BBn/	.	.	(8Bn/	p
=9	=9	=9	=9	=9
[2E-\)	.	.	[2e-/)	.
8E-\]	.	.	8e-/]	.
8r	.	.	8r	.
!	!	!	!LO:TX:b:i:t=poco rit.	!
(4F\	.	.	(4f/	.
=10	=10	=10	=10	=10
4.E-\	.	.	4.e-/	.
8D-X\	.	.	8d-X/	.
[4C-X/)	.	.	[4c-X/)	.
8C-/L]	.	.	8c-/L]	.
*	*	*	*clefF4	*
(8CC-X/J	.	.	(8C-X/J	.
=11	=11	=11	=11	=11
[2EE-/)	.	.	[2E-\)	.
8EE-/]	.	.	8E-\]	.
8r	.	.	8r	.
4r;	.	.	4r;	.
*	*	*	*clefG2	*
!!LO:LB:g=original	!	!	!
=12||	=12||	=12||	=12||	=12||
*	*	*	*^	*
!	!	!	!LO:TX:a:B:t=Quasi Marzia molto sostenuto.	!	!
4CC/ 4C	.	.	(4G/ 4g	2c\ 2e-	p
4FFF/ 4FF	.	.	4A-/ 4a-	.	.
4GGG/ 4GG	.	.	8.G/L 8.Bn 8.e- 8.g	2rcyy	.
.	.	.	16d/Jk 16f	.	.
4CC/ 4C	.	.	4G/) 4c 4e-	.	.
=13	=13	=13	=13	=13	=13
4AAA-/ 4AA-	.	.	(>4E-/ 4A- 4c 4e-	2rcyy	.
4DD-X/ 4D-X	.	.	4F/ 4A- 4d-X 4f	.	.
4EE-/	.	.	8.c/L 8.e-	4.G\ 4.B-	.
.	.	.	16B-/Jk 16d-	.	.
4AAA-/ 4AA-	.	.	4E-/ 4A- 4c	.	.
.	.	.	.	[8rcyy	.
=14	=14	=14	=14	=14	=14
4GGG/ 4GG	.	.	4G/) 4Bn 4dn	2rc]	.
4CC/ 4C	.	.	(4G/ 4B-X 4c 4en	.	<
4FFF/ 4FF	.	.	8.g/L	4A-\ 4c	.
.	.	.	16f/Jk	.	.
4CC/ 4C	.	.	4G/ 4c 4e	[4rcyy	[
=15	=15	=15	=15	=15	=15
4DD/ 4D	.	.	4F#X/) 4c 4d	2rc]	.
4GGG/ 4GG	.	.	(4Bn/ 4d 4g	.	.
4DD/ 4D	.	.	8.bn/L	4c\ 4d 4f#X	>
.	.	.	16an/Jk	.	.
4GGG/ 4GG	.	.	4B/) 4d 4g	[4rcyy	.
=16	=16	=16	=16	=16	=16
4CC/ 4C	.	.	4e-/ 4g 4ee-	2rcyy]	] p
(4C\ 4c	.	.	4e-/ [4a- 4ee-	.	.
4BBn\) 4Bn	.	.	4d/ 4dd	8.a-\L]	.
.	.	.	.	(>16f#X\Jk	.
(4BB-X\ 4B-X	.	.	4d/ [4g) 4dd	4rcyy	.
*	*	*	*v	*v	*
=17	=17	=17	=17	=17
4AAn\) 4An	.	.	4c/ 4g] 4cc	.
(4AA-X\ 4A-X	.	.	(>4c/ 4f#X 4dd	.
4GG/) 4G	.	.	8.d/L) 8.g 8.bn	.
.	.	.	16c/Jk 16d 16an	.
4FF/ 4F	.	.	4Bn/ 4d (>4g	.
!!LO:LB:g=original	!	!	!
=18	=18	=18	=18	=18
*	*	*	*^	*
4EE-/ 4E-	.	.	4c/ 4g 4cc)	2rcyy	p
4FF/ 4F	.	.	(>4c/ 4f 4a-	.	.
4BBBn/ 4BBn	.	.	8.g/L	4G\ 4d	<
.	.	.	16f/Jk	.	.
4CC/ 4C	.	.	(<4G/) [>4c [4e-	[4rcyy	.
=19	=19	=19	=19	=19	=19
4AAA-/ 4AA-	.	.	4A-/) 4c] 4e-]	2rc]	[
4DD-X/ 4D-X	.	.	(4F/ 4A- 4d-X 4f	.	>
4GGG/ 4GG	.	.	8.e-/L	4F\ 4G 4Bn	.
.	.	.	16dn/Jk	.	.
4CC/ 4C	.	.	4E-/) 4G 4c	[4rcyy	]]
=20	=20	=20	=20	=20	=20
4CC/ 4C	.	.	4e-/ 4g 4ee-	2rcyy]	pp
(4C\ 4c	.	.	(>4e-/ [4a- 4ee-	.	.
4BBn\) 4Bn	.	.	4d/) 4dd	8.a-\L]	.
.	.	.	.	16f#X\Jk	.
(4BB-X\ 4B-X	.	.	4d/ [4g 4dd	4rcyy	.
*	*	*	*v	*v	*
=21	=21	=21	=21	=21
4AAn\) 4An	.	.	4c/ 4g] 4cc	.
(4AA-X\ 4A-X	.	.	4c/ 4f#X 4dd	.
4GG/) 4G	.	.	8.d/L 8.g 8.bn	>
.	.	.	16c/Jk 16d 16an	.
4FF/ 4F	.	.	4Bn/ 4d 4g	]]
=22	=22	=22	=22	=22
*	*	*	*^	*
4EE-/ 4E-	.	.	4c/ 4g 4cc	2rcyy	.
4FF/ 4F	.	.	4c/ 4f 4a-	.	.
4BBBn/ 4BBn	.	.	8.g/L	4G\ 4d	<
.	.	.	(16f/Jk	.	.
4CC/ 4C	.	.	4G/ 4c 4e-	[4rcyy	[
=23	=23	=23	=23	=23	=23
4AAA-/ 4AA-	.	.	4A-/) 4c 4e-	2rc]	.
4DD-X/ 4D-X	.	.	(4F/ 4A- 4d-X 4f	.	sfz >
4GGG/ 4GG	.	.	8.e-/L	4F\ 4G 4Bn	.
.	.	.	16dn/Jk	.	.
4CC/ 4C	.	.	4E-/) 4G 4c	4rcyy	]]
!!LO:LB:g=original	!	!	!	!
=24||	=24||	=24||	=24||	=24||	=24||
!	!	!	!LO:TX:b:i:t=dolce	!	!
8e->\L	.	.	2raayy	4gu/	p
8C/J	.	.	.	.	.
8f>\L	.	.	.	4a-/	.
8C/J	.	.	.	.	.
8e->\L	.	.	(4gg/	(>8.g/L	p
8G/J	.	.	.	.	.
.	.	.	.	16f/Jk	.
8c>\L	.	.	8.aa-/L	4e-/)	.
8C/J	.	.	.	.	.
.	.	.	16gg/Jk	.	.
=25	=25	=25	=25	=25	=25
8c>\L	.	.	4cc/)	4e-/	.
8AA-/J	.	.	.	.	.
8d-X>\L	.	.	4raa	4f/	.
8D-X/J	.	.	.	.	.
8c>\L	.	.	(4ee-/	(>8.e-/L	.
8E-/J	.	.	.	.	.
.	.	.	.	16B-/Jk 16d-X	.
8A->\L	.	.	8.ff/L	4c/)	.
8AA-/J	.	.	.	.	.
.	.	.	16ee-/Jk	.	.
=26	=26	=26	=26	=26	=26
8A-\L 8c	.	.	[4a-/)	4d</	.
8FF\J	.	.	.	.	.
8B-\L 8c	.	.	8.a-/L]	4en</	.
8C\J	.	.	.	.	.
.	.	.	16g/Jk	.	.
8A-\L 8c	.	.	[4cc\	(8.g</L	<
8C\J	.	.	.	.	.
.	.	.	.	16f</Jk	.
8G\L 8c	.	.	8.cc\L]	4e</)	[
8C\J	.	.	.	.	.
.	.	.	(16cc\Jk	.	.
=27	=27	=27	=27	=27	=27
8F#X\L 8c	.	.	8.ccc/L)	4d</	.
8DD\J	.	.	.	.	.
.	.	.	(>16aa-/Jk	.	.
8Bn>\L 8d>	.	.	8.gg/L)	4g/	.
8GG/J	.	.	.	.	.
.	.	.	(32ff/LL	.	.
.	.	.	32ee-/JJJ	.	.
8c>\L 8d> 8f#X>	.	.	[4dd/)	8.bn/L	>
8D/J	.	.	.	.	.
.	.	.	.	16an/Jk	.
8Bn>\L	.	.	8dd/]	4d/ 4g	.
8GG/J	.	.	8rgg	.	]]
*	*	*	*v	*v	*
=28	=28	=28	=28	=28
*^	*	*	*	*
!LO:TX:a:i:t=espr.	!	!	!	!	!
(4b-/	8b-\L	.	.	2r	.
.	8c\J 8e-	.	.	.	.
[4a-/)	8a-\L	.	.	.	.
.	8c\J 8e-	.	.	.	.
!	!	!	!	!LO:TX:a:i:t=espr.	!
8.a-/L]	8Bn\ 8d	.	.	([4ee-\	.
.	4B\ 4d	.	.	.	.
16f#X/Jk	.	.	.	.	.
[4g/	.	.	.	8.ee-\L]	.
.	8B-X\ 8d	.	.	.	.
.	.	.	.	16dd\Jk	.
!!LO:LB:g=original	!	!	!	!
=29	=29	=29	=29	=29	=29
(4g/]	8g\	.	.	8cc\)	.
.	4An\ 4c	.	.	8r	.
4f#X/)	.	.	.	([4dd\	.
.	8A-X\ 8c	.	.	.	.
8.f#/L	8f#\	.	.	8.dd\L]	.
.	4G\ 4Bn	.	.	.	.
16e-/Jk	.	.	.	16cc\Jk	.
4d/	.	.	.	4bn\	.
.	8F\ 8G	.	.	.	.
=30	=30	=30	=30	=30	=30
*	*	*	*	*^	*
*	*Xtuplet	*	*	*	*	*
4c~/	12c\L	.	.	8cc\)	2rcyy	.
.	12E-\ 12G	.	.	.	.	.
.	.	.	.	8raa	.	.
.	12c\J	.	.	.	.	.
4d-X~/	12F\L 12A-	.	.	8.cc\L 8.ccc	.	.
.	12d-\	.	.	.	.	.
.	12F\J 12A-	.	.	.	.	.
.	.	.	.	16cc\Jk 16ccc	.	.
4dn^/	12d\L	.	.	[4ccc/	4cc\	.
.	12F#X\ 12An	.	.	.	.	.
.	12d\J	.	.	.	.	.
4e-^/	12G\L 12B-	.	.	8.ccc/L]	4dd-X\	.
.	12e-\	.	.	.	.	.
.	12G\J 12d-X	.	.	.	.	.
.	.	.	.	16bb-/Jk	.	.
=31	=31	=31	=31	=31	=31	=31
4en^/	12c\L	.	.	[4aa-/	4cc\	.
.	12A-\	.	.	.	.	.
.	12c\J	.	.	.	.	.
*	*	*	*	*Xtuplet	*	*
4f^/	12d-X\L	.	.	12aa-/L]	4rcyy	.
.	12F\	.	.	(12gg/	.	.
.	12A-\J 12d- 12f	.	.	12aa-/J	.	.
4Bn/ 4e	12F\L 12G	.	.	[4gg/)	2rcyy	.
.	12GG\	.	.	.	.	.
.	12F\J	.	.	.	.	.
(16qqG/LL 16qqB	.	.	.	.	.	.
16qqd-/JJ	.	.	.	.	.	.
8G/L) 8c	8E-\	.	.	8.gg/L]	.	.
8g/J	8rC	.	.	.	.	.
.	.	.	.	16ee-/Jk	.	.
*	*	*	*	*v	*v	*
=32	=32	=32	=32	=32	=32
!	!	!	!	!LO:TX:b:i:t=molto espr.	!
4b-/	8b-\L	.	.	8cc\	.
.	8c\J 8e-	.	.	8r	.
4a-/	8a-\L	.	.	4r	.
.	8c\J 8e-	.	.	.	.
8.a-/L	8a-\	.	.	([4ee-\ [4eee-	.
.	4c\ 4e-	.	.	.	.
16f#X/Jk	.	.	.	.	.
[4g/	.	.	.	8.ee-\L] 8.eee-]	.
.	8B-\ 8d	.	.	.	.
.	.	.	.	16dd\Jk 16ddd	.
!!LO:PB:g=original	!	!	!	!
=33	=33	=33	=33	=33	=33
4g/]	8g\	.	.	4cc\) 4ccc	.
.	4An\ 4c	.	.	.	.
(4f#X/	.	.	.	([4dd\ [4ddd	.
.	8A-X\ 8c	.	.	.	.
8.fn/L)	8f\	.	.	8.dd\L] 8.ddd]	.
.	4G\ 4Bn	.	.	.	.
16e-/Jk	.	.	.	16cc\Jk 16ccc	.
4d/	.	.	.	4bn\ 4bbn	.
.	8F\ 8G	.	.	.	.
*v	*v	*	*	*	*
=34	=34	=34	=34	=34
8E-\L 8G 8c	.	.	[4cc\) [4ccc	.
8C\J	.	.	.	.
8D-X\L	.	.	8.cc\L] 8.ccc]	<
8B-\J 8g	.	.	.	.
.	.	.	16cc\Jk 16ccc	.
8Dn\L	.	.	[4cc\ [4ccc	.
8A-\J 8f	.	.	.	.
8E-\L	.	.	8.cc\L] 8.ccc]	[
8G\J 8d-X	.	.	.	.
.	.	.	16b-\Jk 16bb-	.
=35	=35	=35	=35	=35
*^	*	*	*	*
8rcyy	8En\L	.	.	[4a-\ [4aa-	<
[8c/	(8A-\J	.	.	.	.
12A-/L 12c]	12F\L)	.	.	12a-\L] 12aa-]	.
12B-~/	12G\	.	.	12en~\ 12een	.
12c~/J	12A-\J	.	.	12f~\J 12ff	.
8G/L 8Bn	2rEEyy	.	.	8.e-X/L 8.ee-X	sfz
[8GG/J [8G	.	.	.	.	.
.	.	.	.	16f/Jk 16g 16bn 16dd	.
8.GG/L] 8.G]	.	.	.	[4e-/ [4g [4cc	>
16EEn/Jk 16E	.	.	.	.	.
*v	*v	*	*	*	*
=36	=36	=36	=36	=36
*	*	*	*^	*
8CC/ 8C	.	.	8e-/] 8g] 8cc]	2rcyy	]
*	*	*	*clefF4	*	*
16r	.	.	16rC	.	.
*	*	*	*tuplet	*	*
!	!	!	!LO:TUP:a:problem:klamra łukowa	!	!
48CC/LLL 48GG	.	.	48E-\LLL 48G	.	f
48CC/ 48GG	.	.	48E-\ 48G	.	.
48CC/JJJ 48GG	.	.	48E-\JJJ 48G	.	.
8.CC/L 8.GG	.	.	8.E-\L 8.G	.	.
16FF/Jk	.	.	16C\Jk 16A-	.	.
(4GG/	.	.	8.E-/L (>8.G	(<4BBn\	.
.	.	.	16D/Jk 16F	.	.
8.CC/L)	.	.	4E-/)	8C\)	.
.	.	.	.	8rEE	.
16BBB-/Jk 16BB-	.	.	.	.	.
*	*	*	*v	*v	*
*	*	*	*clefG2	*
!!LO:LB:g=original	!	!	!
=37	=37	=37	=37	=37
*	*	*	*Xtuplet	*
8AAA-/ 8AA-	.	.	12r	<
.	.	.	12c/L (12cc	.
8r	.	.	.	.
.	.	.	12e-/J 12ee-	.
(<4D-X\ (>4F (>4c	.	mf	12f\L 12ff	.
.	.	.	12cc\ 12ccc	[
.	.	.	12f\J 12ff	.
8E-\) 8G) 8d-X)	.	.	[4b-\ [4bb-)	>
16r	.	.	.	.
48EE-/LLL 48E-	.	.	.	.
48EE-/ 48E-	.	.	.	.
48EE-/JJJ 48E-	.	.	.	.
8EE-/ 8E-	.	.	8b-\] 8bb-]	] <
16r	.	.	16r	.
48AAA-/LLL 48AA-	.	.	48E-/LLL 48A- 48c	.
48AAA-/ 48AA-	.	.	48E-/ 48A- 48c	.
48AAA-/JJJ 48AA-	.	.	48E-/JJJ 48A- 48c	[[
=38	=38	=38	=38	=38
*	*	*	*^	*
8.AAA-/L 8.AA-	.	.	8.E-/L 8.A- 8.c	2rc	.
48AAA-/LL 48AA-	.	.	48F/LL 48Bn 48dn	.	f
48AAA-/ 48AA-	.	.	48F/ 48B 48d	.	.
48AAA-/JJJ 48AA-	.	.	48F/JJJ 48B 48d	.	.
8.AAA-/L 8.AA-	.	.	8.F/L 8.B 8.d	.	.
16GGG/Jk 16GG	.	.	16B-X/Jk 16c 16en	.	.
(4FFF/ 4FF	.	.	(8.g/L	4A-\ 4c	.
.	.	.	16f/Jk	.	.
8.CC/L) 8.C	.	.	8.G/L) 8.c 8.e	4rcyy	.
48CC/LL 48C	.	.	48G/LL 48c 48e	.	.
48CC/ 48C	.	.	48G/ 48c 48e	.	.
48CC/JJJ 48C	.	.	48G/JJJ 48c 48e	.	.
*	*	*	*v	*v	*
!!LO:LB:g=original	!	!	!
=39	=39	=39	=39	=39
8DD/ 8D	.	.	12F#X/L 12c 12d	<
.	.	.	(12c/ 12cc	.
8r	.	.	.	.
.	.	.	12e-/J 12ee-	.
((4D\ 4F#X 4c	.	.	12f#X\L 12ff#X	[
.	.	.	12bn\ 12bbn	.
.	.	.	12f#\J 12ff#	.
8G\)) 8Bn	.	.	[4g\) [4gg	.
16r	.	.	.	.
48GG/LLL	.	.	.	.
48GGG/	.	.	.	.
48GG/JJJ	.	.	.	.
*tremolo	*	*	*	*
32GGG/LLL	.	.	8g\] 8gg]	.
32GG/	.	.	.	.
32GGG/	.	.	.	.
32GG/	.	.	.	.
32GGG/	.	.	8r	.
32GG/	.	.	.	.
32GGG/	.	.	.	.
32GG/JJJ	.	.	.	.
*Xtremolo	*	*	*	*
=40	=40	=40	=40	=40
12CC/L 12C	.	.	4r	.
12GG/ 12G	.	.	.	.
12EE-/J 12E-	.	.	.	.
12CC/L 12C	.	.	([4ee-^\ [4aa- 4ccc [4eee-	ff
12AA-/ 12A-	.	.	.	.
12CC/J 12C	.	.	.	.
12FF/L 12F	.	.	12ee-\L] 12aa-] 12bbn 12eee-]	.
12AA-/ 12A-	.	.	12.dd\) 12.ddd	.
[12CC/J [12C	.	.	.	.
.	.	.	24en\Jk 24cc#X 24een	.
12CC/L] 12C]	.	.	8.f\L 8.dd 8.ff	.
12AA-/ 12A-	.	.	.	.
12BBB-/J 12BB-	.	.	.	.
.	.	.	16dd\Jk 16ff 16ddd	.
=41	=41	=41	=41	=41
*	*	*	*^	*
12AAAn/L 12AAn	.	.	6cc\ 6ff 6ccc	6ryy	.
12FF/ 12F	.	.	.	.	.
12AAA/J 12AA	.	.	([<12dd^\ [>12ff\ [12ddd	12ryy	.
12AAA-X/L 12AA-X	.	.	12dd\L] 12ddd]	4ff/]	.
12FF/ 12F	.	.	12cc\) 12ccc	.	.
12AAA-/J 12AA-	.	.	12f#X\J 12cc 12dd 12ff#X	.	.
12GGG/L 12GG	.	.	[<4g\ [<4bn [4dd [4gg	2rcyy	.
12DD/ 12D	.	.	.	.	.
12BBBn/J 12BBn	.	.	.	.	.
12GGG/L 12GG	.	.	8g\] 8b] 8dd] 8gg]	.	.
12DD/ 12D	.	.	.	.	.
.	.	.	8ra	.	.
12FF/J 12F	.	.	.	.	.
!!LO:LB:g=original	!	!	!	!
=42	=42	=42	=42	=42	=42
*^	*	*	*	*	*
24EE-/LL 24E-	4rEEyy	.	.	12raa	2.rcyy	<
24G/	.	.	.	.	.	.
24A-/	.	.	.	[6cc\ [6ccc	.	.
24B-/	.	.	.	.	.	.
24A-/	.	.	.	.	.	.
24G/JJ	.	.	.	.	.	.
24F/LL	4F\	.	.	12cc\] 12ccc]	.	.
24A-/	.	.	.	.	.	.
24B-/	.	.	.	[6dd-X\ [<6ccc [6ddd-X	.	.
24c/	.	.	.	.	.	.
24B-/	.	.	.	.	.	.
24A-/JJ	.	.	.	.	.	.
24F#X/LL	4F#\	.	.	12dd-\] 12ccc] 12ddd-]	.	.
24An/	.	.	.	.	.	.
24B-/	.	.	.	[6ddn\ 6ccc [6dddn	.	.
24c/	.	.	.	.	.	.
24B-/	.	.	.	.	.	.
24A/JJ	.	.	.	.	.	.
24G/LL	4G\	.	.	12dd\L] 12ddd]	12ryy	.
24B-/	.	.	.	.	.	.
24c/	.	.	.	12ff\ 12fff	[6ccc/	.
24d-X/	.	.	.	.	.	.
24c/	.	.	.	12een\J [>12eeen	.	.
24B-/JJ	.	.	.	.	.	.
=43	=43	=43	=43	=43	=43	=43
24A-/LL	4A-\	.	.	12ee-\ 8ccc\] 12eeen]	8ryy	.
24c/	.	.	.	.	.	.
24dn/	.	.	.	[6ff\ [6ccc [6fff	.	.
24e-/	.	.	.	.	8rcyy	.
24d/	.	.	.	.	.	.
24c/JJ	.	.	.	.	.	.
24An/LL	4A\	.	.	12ff\L] 12ccc] 12fff]	4rcyy	.
24c/	.	.	.	.	.	.
24d/	.	.	.	12ff\ 12ccc 12fff	.	.
24e-/	.	.	.	.	.	.
24d/	.	.	.	12ff#X\J 12ccc 12fff#X	.	.
24c/JJ	.	.	.	.	.	.
24B-/LL	4B-\	.	.	(<4aa-\ (<4ddd (<4fff# 4aaa-	2rcyy	.
24d/	.	.	.	.	.	.
24e-/	.	.	.	.	.	.
24f/	.	.	.	.	.	.
24e-/	.	.	.	.	.	.
24d/JJ	.	.	.	.	.	.
24Bn/LL	4B\	.	.	8gg\) 8ddd-X) 8fffn) 8ggg	.	.
24d/	.	.	.	.	.	.
24e-/	.	.	.	.	.	.
24f/	.	.	.	8ra	.	.
24e-/	.	.	.	.	.	.
24d/JJ	.	.	.	.	.	.
*v	*v	*	*	*	*	*
*	*	*	*v	*v	*
!!LO:LB:g=original	!	!	!
=44	=44	=44	=44	=44
*8ba	*	*	*	*
*	*	*	*^	*
24C\LL	.	.	4ra	2rcyy	.
24GGG\ 24GG	.	.	.	.	.
!LO:TX:b:i:t=ad lib.	!	!	!	!	!
24AAA-\ 24AA-	.	.	.	.	.
24BBB-\ 24BB-	.	.	.	.	.
24CC\ 24C	.	.	.	.	.
24BBB-\JJ 24BB-	.	.	.	.	.
24AAA-/LL 24AA-	.	.	([4ee-^\ (4ccc [4eee-	.	ff
24GGG/ 24GG	.	.	.	.	.
24FFF/ 24FF	.	.	.	.	.
24EEE-/ 24EE-	.	.	.	.	.
24DDD/ 24DD	.	.	.	.	.
24CCC/JJ 24CC	.	.	.	.	.
24BBBBn/LL 24BBBn	.	.	12ee-\L] 12eee-]	4aa-/)	.
24CCC/ 24CC	.	.	.	.	.
24DDD/ 24DD	.	.	12.dd\) 12.ddd	.	.
24EEE-/ 24EE-	.	.	.	.	.
24FFF/ 24FF	.	.	.	.	.
24GGG/JJ 24GG	.	.	24en\Jk 24cc#X 24een	.	.
24AAA-\LL 24AA-	.	.	8.f\L 8.dd 8.ff	4rcyy	.
24GGG\ 24GG	.	.	.	.	.
24AAA-\ 24AA-	.	.	.	.	.
24BBB-X\ 24BB-X	.	.	.	.	.
24CC\ 24C	.	.	.	.	.
.	.	.	16dd\Jk 16ff 16ddd	.	.
24BBB-\JJ 24BB-	.	.	.	.	.
*X8ba	*	*	*	*	*
=45	=45	=45	=45	=45	=45
*^	*	*	*	*	*
24An/LL	4AAn\	.	.	6cc\ 6ff 6ccc	6ryy	.
24C/	.	.	.	.	.	.
24D/	.	.	.	.	.	.
24E-/	.	.	.	.	.	.
24D/	.	.	.	([<12dd^\ [>12ff [12ddd	12ryy	.
24C/JJ	.	.	.	.	.	.
24AA-X/LL	4AA-\	.	.	12dd\L] 12ddd]	4ff/]	.
24C/	.	.	.	.	.	.
24D/	.	.	.	12cc\) 12ccc	.	.
24E-/	.	.	.	.	.	.
24D/	.	.	.	12f#X\J 12cc 12dd 12ff#X	.	.
24C/JJ	.	.	.	.	.	.
24BBn/LL	4GG\	.	.	[<4g\ [<4bn [4dd [4gg	2rcyy	.
24C/	.	.	.	.	.	.
24D/	.	.	.	.	.	.
24E-/	.	.	.	.	.	.
24D/	.	.	.	.	.	.
24C/JJ	.	.	.	.	.	.
24BB/LL	8GG\	.	.	8g\] 8b] 8dd] 8gg]	.	.
24AAn/	.	.	.	.	.	.
24GG/	.	.	.	.	.	.
24BB/	8rEE	.	.	8ra	.	.
24D/	.	.	.	.	.	.
24F/JJ	.	.	.	.	.	.
!!LO:LB:g=original	!	!	!	!	!
=46	=46	=46	=46	=46	=46	=46
24E-/LL	4E-\	.	.	12raa	2.rcyy	<
24G/	.	.	.	.	.	.
24A-/	.	.	.	[6cc\ [6ccc	.	.
24B-/	.	.	.	.	.	.
24A-/	.	.	.	.	.	.
24G/JJ	.	.	.	.	.	.
24F/LL	4F\	.	.	12cc\] 12ccc]	.	.
24A-/	.	.	.	.	.	.
24B-/	.	.	.	[6dd-X\ [6ccc [6ddd-X	.	.
24c/	.	.	.	.	.	.
24B-/	.	.	.	.	.	.
24A-/JJ	.	.	.	.	.	.
24F#X/LL	4F#\	.	.	12dd-\] 12ccc] 12ddd-]	.	.
24An/	.	.	.	.	.	.
24B-/	.	.	.	[6ddn\ [<6ccc [6dddn	.	.
24c/	.	.	.	.	.	.
24B-/	.	.	.	.	.	.
24A/JJ	.	.	.	.	.	.
24G/LL	4G\	.	.	12dd\L] 6ccc] 12ddd]	12ryy	.
24B-/	.	.	.	.	.	.
24c/	.	.	.	12ff\ 12fff	[6ccc/	.
24d-X/	.	.	.	.	.	.
24c/	.	.	.	12een\J [12eeen	.	.
24B-/JJ	.	.	.	.	.	.
=47	=47	=47	=47	=47	=47	=47
24A-/LL	4A-\	.	.	12ee-\ 8ccc\] 12eeen]	8ryy	.
24c/	.	.	.	.	.	.
24dn/	.	.	.	[6ff\ [6ccc [6fff	.	.
24e-/	.	.	.	.	8rcyy	.
24d/	.	.	.	.	.	.
24c/JJ	.	.	.	.	.	.
24An/LL	4A\	.	.	12ff\L] 12ccc] 12fff]	4rcyy	.
24c/	.	.	.	.	.	.
24d/	.	.	.	12ff\ 12ccc 12fff	.	.
24e-/	.	.	.	.	.	.
24d/	.	.	.	12ff#X\J 12ccc 12fff#X	.	.
24c/JJ	.	.	.	.	.	.
24B-/LL	4B-\	.	.	((4aa-\ 4ddd [4fffn 4aaa-	2rcyy	.
24d/	.	.	.	.	.	.
24e-/	.	.	.	.	.	.
24f/	.	.	.	.	.	.
24e-/	.	.	.	.	.	.
24d/JJ	.	.	.	.	.	.
24Bn/LL	4B\	.	.	[4gg\)) 4ddd-X 4fff] [4ggg	.	.
24d/	.	.	.	.	.	.
24e-/	.	.	.	.	.	.
24f/	.	.	.	.	.	.
24e-/	.	.	.	.	.	.
24d/JJ	.	.	.	.	.	.
*v	*v	*	*	*	*	*
*	*	*	*v	*v	*
=48	=48	=48	=48	=48
24c\LL	.	.	24gg\LL] 24ccc 24eee- 24ggg]	ff
24e-\	.	.	24ee-\	.
24d\	.	.	24dd\	.
24c\	.	.	24cc\	.
24B-\	.	.	24b-\	.
24A-\JJ	.	.	24a-\JJ	.
24G\LL	.	.	24g/LL	.
24c\	.	.	24cc/	.
24B-\	.	.	24b-/	.
24A-\	.	.	24a-/	.
24G\	.	.	24g/	.
24F\JJ	.	.	24f/JJ	.
24E-/LL	.	.	24e-/LL	.
24GG/ 24G	.	.	24g/ 24gg	.
24FF/ 24F	.	.	24f/ 24ff	.
24EE-/ 24E-	.	.	24e-/ 24ee-	.
24DD/ 24D	.	.	24d/ 24dd	.
24CC/JJ 24C	.	.	24c/JJ 24cc	.
24BBB-/LL 24BB-	.	.	24B-/LL 24b-	.
24AAA-/ 24AA-	.	.	24A-/ 24a-	.
24GGG/ 24GG	.	.	24G/ 24g	.
24FFF/ 24FF	.	.	24F/ 24f	.
24EEE-/ 24EE-	.	.	24E-/ 24e-	.
24DDD/JJ 24DD	.	.	24D/JJ 24d	.
=49	=49	=49	=49	=49
!LO:TX:t=P:problem:mixed beam	!	!	!LO:TX:a:i:t=più lento	!
12CCC/L 12CC	.	.	12C/ 12c	.
12c/	.	.	12r	pp
12c/J	.	.	12r	.
12c\L	.	.	4r	.
12c\	.	.	.	.
12c\J	.	.	.	.
12c\L	.	.	2r	.
12c\	.	.	.	.
12c\J	.	.	.	.
12B-\L 12c	.	.	.	.
12B-\ 12c	.	.	.	.
12B-\J 12c	.	.	.	.
=50	=50	=50	=50	=50
*	*	*	*^	*
!	!	!	!LO:TX:b:i:t=dolce	!	!
12A-\L 12c	.	.	4raayy	4rc	.
12A-\ 12c	.	.	.	.	.
12A-\J 12c	.	.	.	.	.
12A-\L 12c	.	.	4raayy	[4ee-\	.
12A-\ 12c	.	.	.	.	.
12A-\J 12c	.	.	.	.	.
12A-\L 12c	.	.	[2eee-/	8.ee-\L]	.
12A-\ 12c	.	.	.	.	.
12A-\J 12d-X	.	.	.	.	.
.	.	.	.	16en\Jk	.
12A-\L 12e-	.	.	.	[4f\	.
12A-\ 12d-	.	.	.	.	.
12A-\J 12c	.	.	.	.	.
=51	=51	=51	=51	=51	=51
12An\L 12d-X	.	.	4eee-/_	8f\]	.
12A\ 12d-	.	.	.	.	.
.	.	.	.	8rc	.
12A\J 12d-	.	.	.	.	.
12B-\L 12d-	.	.	12eee-/L]	[4ff\	.
12B-\ 12d-	.	.	(12ddd-X/	.	.
12B-\J 12d-	.	.	12ccc/J	.	.
12B-\L 12d-	.	.	8bb-/)	8.ff\L]	.
12B-\ 12d-	.	.	.	.	.
.	.	.	8raa	.	.
12B-\J 12e-X	.	.	.	.	.
.	.	.	.	(16f#X\Jk	.
12Bn\L 12f	.	.	4raa	(4g\)	.
12B\ 12e-	.	.	.	.	.
12B\J 12dn	.	.	.	.	.
=52	=52	=52	=52	=52	=52
12c\L 12e-	.	.	4raa	8a-\)	.
12A-\ 12c 12e-	.	.	.	.	.
.	.	.	.	8rc	.
12G-X\J 12c 12e-	.	.	.	.	.
12F\L 12c 12d-X	.	.	[4aa-/	4rc	.
12F\ 12c 12d-	.	.	.	.	.
12F\J 12c 12d-	.	.	.	.	.
12F\L 12c 12d-	.	.	8.aa-/L]	[4cc\	<
12F\ 12c 12d-	.	.	.	.	.
12F\J 12c 12d-	.	.	.	.	.
.	.	.	(16cc/Jk	.	.
12F\L 12c 12d-	.	.	[4dd-X/)	12cc\L]	[
12F\ 12c 12d-	.	.	.	(12b-\	.
12F\J 12c 12d-	.	.	.	12a-\J	.
=53	=53	=53	=53	=53	=53
!	!	!	!LO:TX:b:i:t=espr.	!	!
12F-X\L 12B- 12d-X	.	.	8.dd-/L]	8g\)	.
12F-\ 12B- 12d-	.	.	.	.	.
.	.	.	.	8rc	.
12F-\J 12B- 12d-	.	.	.	.	.
.	.	.	16an/Jk	.	.
12F-\L 12B- 12d-	.	.	[4b-/	2rcyy	.
12F-\ 12B- 12d-	.	.	.	.	.
12F-\J 12A- 12d-	.	.	.	.	.
12E-\L 12G 12d-	.	.	6b-/]	.	.
12E-\ 12G 12d-	.	.	.	.	.
12E-\J 12G 12d-	.	.	(12f/	.	.
12E-\L 12G 12d-	.	.	12g/L	6.e-\	>
12E-\ 12G 12d-	.	.	12b-/	.	.
12E-\J 12G 12d-	.	.	12f/J	.	]]
=54	=54	=54	=54	=54	=54
8E-\	.	.	4e-/)	12e-\L	.
.	.	.	.	12A-</ 12c<	.
8r	.	.	.	.	.
.	.	.	.	12A-</J 12c<	.
(4AA-\	.	.	(4f/	12f\L	.
.	.	.	.	12F</ 12c<	.
.	.	.	.	12F</J 12c<	.
!	!	!	!LO:TX:a:i:t=molto cantabile	!	!
4GG\	.	.	8.e-/L	12e-\L	.
.	.	.	.	12F-X</ 12B-<	.
.	.	.	.	12F-</J 12B-<	.
.	.	.	16d-X/Jk	.	.
4GG-X\	.	.	[<4c/	12c\L	.
.	.	.	.	12E-</ 12An<	.
.	.	.	.	12E-</J 12A<	.
=55	=55	=55	=55	=55	=55
4FF\)	.	.	4c/])	12c\L	.
.	.	.	.	12E-</ 12An<	.
.	.	.	.	12E-</J 12A<	.
(4FF-X\	.	.	(4d-X/	12d-\L	.
.	.	.	.	12D-X</ 12A-X<	.
.	.	.	.	12D-</J 12A-<	.
4EE-\)	.	.	8.c/L	12c\L	.
.	.	.	.	12D-</ 12G<	.
.	.	.	.	12D-</J 12G<	.
.	.	.	16B-/Jk	.	.
(4EE-\	.	.	4An/	12A\L	.
.	.	.	.	12C</ 12G-X<	>
.	.	.	.	12C</J 12G-<	]]
!!LO:LB:g=original		!	!	!		!
=56	=56	=56	=56	=56	=56
4DD\)	.	.	4B-/)	12B-\L	.
.	.	.	.	12D-X</ 12F<	.
.	.	.	.	12D-</J 12F<	.
2AAAn\ 2AAn	.	.	(4c/	12c\L	.
.	.	.	.	12E-</ 12G-X<	.
.	.	.	.	12E-</J 12G-<	.
.	.	.	8.e-/L	12e-\L	.
.	.	.	.	12G-</ 12c<	.
.	.	.	.	12G-</J 12c<	.
.	.	.	16d-X/Jk	.	.
(<4EE-\ 4E-	.	.	4c/	12c\L	.
.	.	.	.	12G-</	.
.	.	.	.	12G-</J	.
=57	=57	=57	=57	=57	=57
*^	*	*	*	*	*
4rc	12DDn\L) 12Dn	.	.	4dn/)	12d\L	.
.	12D\	.	.	.	12F#X</ 12c<	.
.	12D\J	.	.	.	12F#</J 12c<	.
12G/L 12B-	4D-X\	.	.	(4en/ 4een	4rcyy	<
12G/ 12B-	.	.	.	.	.	.
12G/J 12B-	.	.	.	.	.	.
!	!	!	!	!LO:TX:b:i:t=molto	!	!
12En/L 12B-	4C\	.	.	8.a-\L 8.aa-	2rcyy	.
12E/ 12B-	.	.	.	.	.	.
12E/J 12B-	.	.	.	.	.	.
.	.	.	.	16g\Jk 16gg	.	.
12d-X/L	4B-\	.	.	4f\ 4ff	.	.
12d-/	.	.	.	.	.	.
12d-/J	.	.	.	.	.	.
*	*	*	*	*v	*v	*
=58	=58	=58	=58	=58	=58
12d-X/L 12f	4B-\	.	.	4g\) 4gg	.
12d-/ 12f	.	.	.	.	.
12d-/J 12f	.	.	.	.	.
12d-/L 12f	4A-\	.	.	(4a-\ 4aa-	.
12d-/ 12f	.	.	.	.	.
12d-/J 12f	.	.	.	.	.
12G/L 12d-	4En\	.	.	8.cc\L 8.ccc	>
12G/ 12d-	.	.	.	.	.
12G/J 12d-	.	.	.	.	.
.	.	.	.	16b-\Jk 16bb-	.
12d-/L 12f	4c\	.	.	4a-\ 4aa-	.
12d-/ 12f	.	.	.	.	.
12d-/J 12f	.	.	.	.	]]
*v	*v	*	*	*	*
!!LO:LB:g=original		!	!			!
=59	=59	=59	=59	=59
12Bn\L 12d-X 12f	.	.	8g\) 8gg	.
*clefG2	*	*	*	*
12g\	.	.	.	.
.	.	.	8r	.
12g\J	.	.	.	.
12f/L 12g	.	.	4r	.
12f/ 12g	.	.	.	.
12f/J 12g	.	.	.	.
12e-/L 12g	.	.	4r	.
12e-/ 12g	.	.	.	.
12e-/J 12g	.	.	.	.
!	!	!	!LO:TX:b:i:t=dolce	!
12e-/L 12g	.	.	[4gg\	.
12e-/ 12g	.	.	.	.
12e-/J 12g	.	.	.	.
=60	=60	=60	=60	=60
12e-/L 12g	.	.	8.gg\L]	.
12e-/ 12g	.	.	.	.
12e-/J 12g	.	.	.	.
.	.	.	(16bn\Jk	.
12e-/L 12g	.	.	[2cc\)	.
12e-/ 12g	.	.	.	.
12e-/J 12g	.	.	.	.
!	!	!LO:DY:b	!	!
(12d/L 12f#X	.	p	.	<
12d/ 12f#	.	.	.	.
12e-/J 12g	.	.	.	.
12d/L 12f#	.	.	8cc\]	.
12fn/ 12an	.	.	.	.
.	.	.	8r	[[
12e-/J) 12g	.	.	.	.
=61	=61	=61	=61	=61
12d'/L 12f#X	.	p	4r	>
(12d'/ 12fn	.	.	.	.
12c'/J 12f	.	.	.	.
12Bn'/L 12f	.	.	8.r	]
12d'/ 12f	.	.	.	.
12c'/J 12f	.	.	.	.
.	.	.	16c#X/	p
12B/L) 12f	.	<	[2d/	.
(12G/ 12B	.	.	.	.
12A-/J 12c	.	[[	.	.
12G/L 12B	.	.	.	.
12B-X/ 12d	.	.	.	.
12A-/J) 12c	.	.	.	.
!!LO:LB:g=original	!	!	!
=62	=62	=62	=62	=62
12G/L 12Bn	.	.	4.d/]	.
12G/ 12B	.	pp	.	.
12G/J 12B	.	.	.	.
12G/L 12B	.	.	.	.
(12G/ 12B	.	.	.	.
.	.	.	(8en/	.
12A-/J 12c	.	.	.	.
12G/L) 12B	.	<	[2f/)	<
12G/ 12B	.	.	.	.
12G/J 12B	.	[[	.	.
12G/L 12B	.	>	.	.
(12B-X/ 12d	.	.	.	.
12A-/J 12c	.	]]	.	.
=63	=63	=63	=63	=63
12G/L) 12Bn	.	.	4.f/]	[
12G/ 12B	.	pp	.	.
12G/J 12B	.	.	.	.
12G/L 12B	.	.	.	.
(12G/ 12B	.	.	.	.
!	!	!	!LO:TX:b:i:t=dolce	!
.	.	.	(8c#X/	.
12A-/J 12c	.	.	.	.
12G/L) 12B	.	.	4.d/)	<
12G/ 12B	.	.	.	.
12G/J 12B	.	.	.	.
12G/L 12B	.	.	.	.
(12B-X/ 12d	.	.	.	.
.	.	.	8en/	[[
12A-/J 12c	.	.	.	.
=64	=64	=64	=64	=64
12G/L) 12Bn	.	.	[2f/	>
12G/ 12B	.	.	.	.
12G/J 12B	.	.	.	.
12G/L 12B	.	.	.	.
(12G/ 12B	.	.	.	.
12A-/J 12c	.	.	.	.
8G/) 8B	.	.	8f/]	]
8r	.	.	8r	.
4r	.	.	4r;	.
!!LO:PB:g=original	!	!	!
=65||	=65||	=65||	=65||	=65||
!	!	!	!LO:TX:a:B:t=Allegro con brio.	!
4r	.	.	1r	f
4g~/	.	.	.	.
4e-~/	.	.	.	.
4a-~/	.	.	.	.
=66	=66	=66	=66	=66
4.g/	.	.	1r	.
8f/	.	.	.	.
8e-/L	.	.	.	.
8f/	.	.	.	.
8e-/	.	.	.	.
8d-X/J	.	.	.	.
=67	=67	=67	=67	=67
4.c/	.	.	4r	.
.	.	.	4e-/	f
8B-/	.	.	.	.
8A-/L	.	.	4c/	.
8B-/	.	.	.	.
8A-/	.	.	4f/	.
8F/J	.	.	.	.
=68	=68	=68	=68	=68
4G/	.	.	4.e-/	.
*clefF4	*	*	*	*
4E-\	.	.	.	.
.	.	.	8d-X/	.
4.A-\	.	.	8c/L	.
.	.	.	8d-/	.
.	.	.	8c/	.
8En\	.	.	8B-/J	.
=69	=69	=69	=69	=69
*^	*	*	*	*
4.A-/	[2F\	.	.	4r	.
.	.	.	.	4cc~\	f
8e-/	.	.	.	.	.
8d-X/L	8F\L]	.	.	4a-~/	.
8c/	8En\	.	.	.	.
8B-/	8G-X\	.	.	[4dd-X^\	.
8A-/J	8Fn\J	.	.	.	.
!!LO:LB:g=original	!	!	!	!
=70	=70	=70	=70	=70	=70
4.B-/	[2G-X\	.	.	4dd-\]	.
.	.	.	.	4ddn~\	.
8f/	.	.	.	.	.
8e-/L	8G-\L]	.	.	4b-~\	.
8d-X/	8F\	.	.	.	.
8c/	8A-\	.	.	[4ee-^\	.
8Bn/J	8Gn\J	.	.	.	.
=71	=71	=71	=71	=71	=71
4.c/	[2A-\	.	.	4ee-\]	.
.	.	.	.	4een~\	.
8g/	.	.	.	.	.
8f/L	8A-\L]	.	.	4cc~\	.
8e-/	8G\	.	.	.	.
8d/	8B-X\	.	.	[4ff^\	.
8c#X/J	8An\J	.	.	.	.
=72	=72	=72	=72	=72	=72
8d/L	8B-\L	.	.	4.ff\]	.
8cn/J	8A-X\J	.	.	.	.
[4Bn/	2G\	.	.	.	.
.	.	.	.	8ee-\	.
8B/L]	.	.	.	8dd\L	.
8c/	.	.	.	8cc\	.
8d/	[4G\	.	.	8bn\	.
8f/J	.	.	.	8dd\J	.
=73	=73	=73	=73	=73	=73
*	*	*	*	*^	*
8e-/L	4G\]	.	.	([2cc/	4rc	.
8f/	.	.	.	.	.	.
8e-/	4G\	.	.	.	2g\	.
8d/J	.	.	.	.	.	.
8c/L	4E-\	.	.	8cc/]	.	.
8d/	.	.	.	4gg/)	.	.
8e-/	4A-\	.	.	.	4cc\	.
8f/J	.	.	.	8ff/	.	.
=74	=74	=74	=74	=74	=74	=74
4g/	4.Gn\	.	.	4ee-/	[2bn\	.
4A-/	.	.	.	4b/	.	.
.	8F\	.	.	.	.	.
4.G/	8E-\L	.	.	4gg/	8b\L]	.
.	8F\	.	.	.	8g\	.
.	8E-\	.	.	8aan/L	8cc\	.
8F/	8D\J	.	.	8bbn/J	8dd\J	.
*v	*v	*	*	*	*	*
*	*	*	*v	*v	*
!!LO:LB:g=original	!	!	!
=75	=75	=75	=75	=75
4.C/ 4.E-	.	.	8ee-\L 8ccc	.
.	.	.	8ff\J 8ddd	.
.	.	.	[4gg\ [4eee-	.
8BB-/ 8D	.	.	.	.
4.AAn/ 4.C	.	.	8gg\L] 8eee-]	.
.	.	.	8ff\ 8ddd	.
.	.	.	8ee-\ 8ccc	.
8BB-/ 8D	.	.	8dd\J 8bb-	.
=76	=76	=76	=76	=76
*^	*	*	*	*
8E-/L	8C\L	.	.	8cc\L 8aan	.
8D/	8D\	.	.	8b-\ 8gg	.
8c/	8E-\	.	.	8an\ 8ff#X	.
8B-/J	8D\J	.	.	8b-\J 8gg	.
4An/	8C\L	.	.	4.a\ 4.ff# 4.aa	.
.	8E-\	.	.	.	.
[4d/	8D\	.	.	.	.
.	8C\J	.	.	8a\ 8ff# 8aa	.
=77	=77	=77	=77	=77	=77
8d/]	4BB-\	.	.	8dd\ 8gg 8ddd	.
8rc	.	.	.	4gg\	.
4d/	8B-\L	.	.	.	.
.	8A-X\J	.	.	8ffn\	.
4B-/	4.G\	.	.	8ee-\L	.
.	.	.	.	8dd\	.
[4e-/	.	.	.	8cc\	.
.	8G\	.	.	8bn\J	.
=78	=78	=78	=78	=78	=78
4e-/]	[2A-\	.	.	4.cc\	.
4en/	.	.	.	.	.
.	.	.	.	(8gg\	.
4c/	8A-\L]	.	.	8ff\L)	.
.	8G\	.	.	8ee-\	.
[4f/	8A-\	.	.	8dd\	.
.	8An\J	.	.	8cc#X\J	.
=79	=79	=79	=79	=79	=79
4f/]	[2B-\	.	.	4.dd\	.
4f#X/	.	.	.	.	.
.	.	.	.	(8aa-\	.
4d/	8B-\L]	.	.	8gg\L)	.
.	8An\	.	.	8ff\	.
[4g/	8c\	.	.	8ee-\	.
.	8Bn\J	.	.	8dd\J	.
*v	*v	*	*	*	*
!!LO:LB:g=original	!	!	!
=80	=80	=80	=80	=80
*	*	*	*^	*
8c\ 8g]	.	.	8ee-\	2rcyy	.
48r	.	.	8ra	.	ff
48C\LLL	.	.	.	.	.
!	!	!LO:HP:a	!	!	!
48D\	.	<	.	.	.
48E-\	.	.	.	.	.
48F\	.	.	.	.	.
48G\JJJ	.	.	.	.	.
[4A-\	.	[	32ra	.	.
.	.	.	(32c\LLL	.	ff
.	.	.	32d\	.	.
.	.	.	32e-\	.	.
.	.	.	32f\	.	.
.	.	.	32g\	.	.
.	.	.	32a-\	.	.
.	.	.	32b-\JJJ	.	.
8A-\L]	.	.	4.cc/	8cc\L)	.
8BB-\ 8B-	.	.	.	8d\J	.
!	!	!	!	!LO:N:vis=4	!
8AA-\ 8A-	.	.	.	8e-\	.
8GG\J 8G	.	.	(8b-/	(8b-\	.
*	*	*	*v	*v	*
=81	=81	=81	=81	=81
4.FF#X/ 4.F#X	.	.	32e-\LLL)) 32an	.
.	.	.	32dd\	.
.	.	.	32een\	.
.	.	.	32ff#X\	.
.	.	.	32gg\	.
.	.	.	32aan\	.
.	.	.	32bb-\	.
.	.	.	32ccc\JJJ	.
.	.	.	[4dd\ [4ddd	.
8DD/ 8D	.	.	.	.
8FFn/L 8Fn	.	.	8dd\L] 8ddd]	.
8AA-X/ 8A-X	.	.	8cc\ 8ff# 8ccc	.
8GG/ 8G	.	.	8bn\ 8ee 8bbn	.
8FF/J 8F	.	.	8dd\J 8ddd	.
=82	=82	=82	=82	=82
*	*	*	*^	*
8EEn/ 8En	.	.	8cc\ 8gg 8ccc	2rcyy	.
48r	.	.	8ryy	.	.
(<48FF/LLL	.	.	.	.	.
48GG/	.	.	.	.	.
48AA-/	.	.	.	.	.
48BB-/	.	.	.	.	.
48C/JJJ	.	.	.	.	.
[4D-X\)	.	.	32ra	.	.
.	.	.	(32f\LLL	.	.
.	.	.	32g\	.	.
.	.	.	32a-\	.	.
.	.	.	32b-\	.	.
.	.	.	32cc\	.	.
.	.	.	32dd-X\	.	.
.	.	.	32ee-\JJJ)	.	.
8D-\L]	.	.	4.ff/	8f\L	.
8E\ 8en	.	.	.	8g\J	.
8D-X\ 8d-X	.	.	.	[4a-\	.
8C\J 8c	.	.	(8ee-/	.	.
!!LO:LB:g=original	!	!	!	!
=83	=83	=83	=83	=83	=83
4.BBn\ 4.Bn	.	.	4ddn/)	32a-\LLL]	.
.	.	.	.	(>32gg\	.
.	.	.	.	32aan\	.
.	.	.	.	32bbn\JJJ	.
.	.	.	.	32ccc\LLL	.
.	.	.	.	32ddd\	.
.	.	.	.	32eee-\	.
.	.	.	.	32fff\JJJ	.
.	.	.	[4gg\ [4ggg)	4rcyy	.
8GG/ 8G	.	.	.	.	.
8BB-X\L 8B-X	.	.	8gg\L] 8ggg]	2rcyy	.
8D-X\ 8d-X	.	.	8ff\ 8bb-X 8fff	.	.
8C\ 8c	.	.	8een\ 8aa-X 8eeen	.	.
8BB-\J 8B-	.	.	8gg\J 8ggg	.	.
*	*	*	*v	*v	*
=84	=84	=84	=84	=84
8AAn\ 8An	.	.	8ff\ 8ccc 8fff	.
48r	.	.	8r	.
(48BB-\LLL	.	.	.	.
48C\	.	.	.	.
48D-X\	.	.	.	.
48E-\	.	.	.	.
48F\JJJ	.	.	.	.
[4G-X\)	.	.	32r	.
.	.	.	(32B-/LLL	.
.	.	.	32c/	.
.	.	.	32d-X/	.
.	.	.	32e-/	.
.	.	.	32f/	.
.	.	.	32g-X/	.
.	.	.	32a-X/JJJ	.
8G-/L]	.	.	8b-\)	.
8AA-X/ 8A-X	.	.	8r	.
8GG-X/ 8G-	.	.	16.r	.
.	.	.	(32ee-\LLL	.
8FF/J 8F	.	.	32ff\	.
.	.	.	32gg-X\	.
.	.	.	32aa-X\	.
.	.	.	32bb-\JJJ	.
!!LO:LB:g=original	!	!	!
=85	=85	=85	=85	=85
8EE-/ 8E-	.	.	16cc-X\LL) 16ccc-X	.
.	.	.	16cc-\	.
48r	.	.	16ccc-\	.
(48E-\LLL	.	.	.	.
48F\	.	.	.	.
48G-X\	.	.	16cc-\JJ	.
48A-X\	.	.	.	.
48B-\JJJ)	.	.	.	.
[4c-X\	.	.	16aa-\LL 16ccc-	.
.	.	.	16cc-\	.
.	.	.	16gg-X\ 16bb-	.
.	.	.	16b-\JJ	.
*	*	*	*tremolo	*
8c-\L]	.	.	16ff\LL 16aa-X	.
.	.	.	16a-X\	.
8D-X\ 8d-X	.	.	16ff\ 16aa-	.
.	.	.	16a-\	.
8C-X\ 8c-X	.	.	16ff\ 16aa-	.
.	.	.	16a-\JJ	.
*	*	*	*Xtremolo	*
8BB-\J 8B-	.	.	16ggn\LL 16bb-	.
.	.	.	16b-\JJ	.
=86	=86	=86	=86	=86
*	*	*	*tremolo	*
8AA-\ 8A-	.	.	16aa-\LL 16ccc-X	.
.	.	.	16cc-X\	.
48r	.	.	16aa-\ 16ccc-	.
(48AA-/LLL	.	.	.	.
48BB-/	.	.	.	.
48C-X/	.	.	16cc-\	.
48D-X/	.	.	.	.
48E-/JJJ)	.	.	.	.
[4F-X\	.	.	16aa-\ 16ccc-	.
.	.	.	16cc-\JJ	.
.	.	.	16aa-\LL 16bb-	.
.	.	.	16b-\JJ	.
8F-/L]	.	.	16aa-\LL 16ccc-	.
.	.	.	16cc-\	.
8GG-X/ 8G-X	.	.	16aa-\ 16ccc-	.
.	.	.	16cc-\	.
8FF-X/ 8F-	.	.	16aa-\ 16ccc-	.
.	.	.	16cc-\JJ	.
8EE-/J 8E-	.	.	16aa-\LL 16cccn	.
.	.	.	16ccn\JJ	.
=87	=87	=87	=87	=87
8CC#X/ 8C#X	.	.	16aan\LL 16ccc#X	.
.	.	.	16cc#X\	.
48r	.	.	16gg#X\ 16bbn	.
48FF#X/LLL	.	.	.	.
48GG#X/	.	.	.	.
48AAn/	.	.	16bn\JJ	.
48BBn/	.	.	.	.
48C#/JJJ	.	.	.	.
[4Dn\	.	.	16ff#X\LL 16aa	.
.	.	.	16an\	.
.	.	.	16ff#\ 16gg#	.
.	.	.	16g#X\JJ	.
8D/L]	.	.	16ff#\LL 16aa	.
.	.	.	16a\	.
8EEn/ 8En	.	.	16ff#\ 16aa	.
.	.	.	16a\	.
8DD/ 8D	.	.	16ff#\ 16aa	.
.	.	.	16a\JJ	.
8CCn/J 8Cn	.	.	16ff#\LL 16aa#X	.
.	.	.	16a#X\JJ	.
*	*	*	*Xtremolo	*
=88	=88	=88	=88	=88
8BBBn/ 8BBn	.	.	16gg\LL 16bbn	.
.	.	.	16bn\	.
48r	.	.	16ff#X\ 16aan	.
(48EEn/LLL	.	.	.	.
48FF#X/	.	.	.	.
48GG/	.	.	16an\JJ	.
48AAn/	.	.	.	.
48BB/JJJ)	.	.	.	.
[4C/	.	.	16een\LL 16gg	.
.	.	.	16g\	.
.	.	.	16ee\ 16ff#	.
.	.	.	16f#X\JJ	.
8C\L]	.	.	16ee\LL 16gg	.
.	.	.	16g\	.
8D\ 8d	.	.	16ee\ 16ff#	.
.	.	.	16f#\JJ	.
8C\ 8c	.	.	16ee\LL 16gg	.
.	.	.	16g\	.
8BBn\J 8Bn	.	.	16ee\ 16gg#X	.
.	.	.	16g#X\JJ	.
!!LO:LB:g=original	!	!	!
=89	=89	=89	=89	=89
8AAn\L 8An	.	.	16een\LL 16aan	.
.	.	.	16an\	.
8BBn\ 8Bn	.	.	16ee\ 16gg#X	.
.	.	.	16g#X\JJ	.
8AA\ 8A	.	.	16ee\LL 16aa	.
.	.	.	16a\	.
8GG\J 8G	.	.	16ee\ 16bbn	.
.	.	.	16bn\JJ	.
8FF/L 8F	.	.	16aa\LL 16ccc	.
.	.	.	16cc\	.
8GG/ 8G	.	.	16aa\ 16bb	.
.	.	.	16b\JJ	.
8FF/ 8F	.	.	16aa\LL 16ccc	.
.	.	.	16cc\	.
8EE-X/J 8E-X	.	.	16aa\ 16ccc#X	.
.	.	.	16cc#X\JJ	.
=90	=90	=90	=90	=90
2.DD/ 2.D	.	.	16bb-X\LL 16ddd	.
.	.	.	16dd\	.
.	.	.	16ccc\ 16eee-X	.
.	.	.	16ee-X\JJ	.
.	.	.	16bb-\LL 16ddd	.
.	.	.	16dd\	.
.	.	.	16aan\ 16ccc	.
.	.	.	16cc\JJ	.
.	.	.	16gg\LL 16bb-	.
.	.	.	16b-\	.
.	.	.	16ff\ 16aa	.
.	.	.	16an\JJ	.
4EE-/ 4E-	.	.	16ee-\LL 16gg	.
.	.	.	16g\	.
.	.	.	16ff\ 16aa	.
.	.	.	16a\JJ	.
=91	=91	=91	=91	=91
4DD/ 4D	.	.	16gg\LL 16bb-	.
.	.	.	16b-\	.
.	.	.	16ff#X\ 16aan	.
.	.	.	16an\JJ	.
4CC/ 4C	.	.	16gg\LL 16bb-	.
.	.	.	16b-\	.
.	.	.	16aa\ 16ccc	.
.	.	.	16cc\JJ	.
4BBB-/ 4BB-	.	.	16bb-\LL 16ddd	.
.	.	.	16dd\	.
.	.	.	16ccc\ 16eeen	.
.	.	.	16een\JJ	.
4AAA-X/ 4AA-X	.	.	16ddd-X\LL 16fff	.
.	.	.	16ffn\	.
.	.	.	16dddn\ 16fff#X	.
.	.	.	16ff#X\JJ	.
!!LO:LB:g=original	!	!	!
=92	=92	=92	=92	=92
*tremolo	*	*	*	*
32GGG/LLL	.	.	4gg\ 4eee- 4ggg	.
32GG/	.	.	.	.
32GGG/	.	.	.	.
32GG/	.	.	.	.
32GGG/	.	.	.	.
32GG/	.	.	.	.
32GGG/	.	.	.	.
32GG/	.	.	.	.
32GGG/	.	.	4r	.
32GG/	.	.	.	.
32GGG/	.	.	.	.
32GG/	.	.	.	.
32GGG/	.	.	.	.
32GG/	.	.	.	.
32GGG/	.	.	.	.
32GG/JJJ	.	.	.	.
32GGG/LLL	.	.	[2g\ [2cc [2ee- [2gg	fff
32GG/	.	.	.	.
32GGG/	.	.	.	.
32GG/	.	.	.	.
32GGG/	.	.	.	.
32GG/	.	.	.	.
32GGG/	.	.	.	.
32GG/	.	.	.	.
32GGG/	.	.	.	.
32GG/	.	.	.	.
32GGG/	.	.	.	.
32GG/	.	.	.	.
32GGG/	.	.	.	.
32GG/	.	.	.	.
32GGG/	.	.	.	.
32GG/JJJ	.	.	.	.
=93	=93	=93	=93	=93
4GGG/ 4GG	.	.	2g\] 2cc] 2ee-] 2gg]	.
4r	.	.	.	.
2FFF~/ 2FF	.	.	2a-~\ 2cc 2ee- 2aa-	.
=94	=94	=94	=94	=94
2GGG~/ 2GG	.	.	2g~\ 2bn 2ee- 2gg	.
2BBBn~/ 2BBn	.	.	2f~\ 2a- 2dd 2ff	.
=95	=95	=95	=95	=95
4CC/ 4C	.	.	8e-\L 8g 8cc 8ee-	.
.	.	.	8cc\	.
4r	.	.	8ee-\	.
.	.	.	8gg\J	.
8r	.	.	8ccc\L	<
8C/L	.	.	16r	.
.	.	.	8ee-\	.
8GG/	.	.	.	.
.	.	.	8gg\	.
8EE-/J	.	.	.	.
.	.	.	16ccc\Jk	[
=96	=96	=96	=96	=96
8CC/	.	.	8eee-\	.
8r	.	.	8r	.
4r	.	.	4r	.
[2AA-\ [2A-	.	.	[2c^/ [2e- [2a- [2cc	.
=97	=97	=97	=97	=97
2AA-\] 2A-]	.	.	2c/] 2e-] 2a-] 2cc]	.
2FF~/ 2F	.	.	2f~\ 2a- 2dd-X 2ff	.
!!LO:LB:g=original	!	!	!
=98	=98	=98	=98	=98
2GG-X~/ 2G-X	.	.	2e-~/ 2g-X 2cc-X 2ee-	.
2GGn~/ 2Gn	.	.	2d-X~/ 2f-X 2b- 2dd-X	.
=99	=99	=99	=99	=99
2AAn~\ 2An	.	.	2cn~/ 2e- 2an 2cc	.
2FF~/ 2F	.	.	2Bn~/ 2d#X 2a 2bn	.
=100	=100	=100	=100	=100
4EEn/ 4En	.	.	8Bn/L 8en 8g#X 8bn	.
.	.	.	8b/	.
4r	.	.	8een/	.
.	.	.	8gg#X/J	.
8r	.	.	8bbn\L	<
8E/L	.	.	16r	.
.	.	.	8ee\	.
8BBn/	.	.	.	.
.	.	.	8gg#\	.
8GG#X/J	.	.	.	.
.	.	.	16bb\Jk	[[
=101	=101	=101	=101	=101
4EEn/	.	.	4eeen\	.
4r	.	.	4r	.
[2CC^/ [2C	.	.	[2ggn^\ [2bb-X [2eee [2gggn	.
=102	=102	=102	=102	=102
2CC/] 2C]	.	.	2gg\] 2bb-] 2eee] 2ggg]	.
2DD~/ 2D	.	.	2ff~\ 2aan 2ddd 2fff	.
=103	=103	=103	=103	=103
4EEn/ 4En	.	.	8een\L 8gg#X 8ccc 8eeen	.
.	.	.	8cc\	.
4r	.	.	8ee\	.
.	.	.	8gg#\J	<
8r	.	.	8ccc\L	.
8C/L	.	.	16r	.
.	.	.	8ee\	.
8GG#X/	.	.	.	.
.	.	.	8gg#\	.
8EE/J	.	.	.	.
.	.	.	16ccc\Jk	[
!!LO:LB:g=original	!	!	!
=104	=104	=104	=104	=104
4CC/	.	.	4eeen\	.
4r	.	.	4r	.
[2FF/ [2F	.	.	[2d/ [2an [2dd	.
=105	=105	=105	=105	=105
2FF/] 2F]	.	.	2d/] 2a] 2dd]	.
2FF#X~/ 2F#X	.	.	2c~/ 2e-X 2a-X 2cc	.
=106	=106	=106	=106	=106
4GG/ 4G	.	.	8Bn/L 8d 8g 8bn	.
.	.	.	8dd/	.
4r	.	.	8gg/	.
.	.	.	8bbn/J	<
8r	.	.	8ddd\L	.
8G\L	.	.	16r	.
.	.	.	8ggn\	.
8D\	.	.	.	.
.	.	.	8bb\	.
8BBn\J	.	.	.	.
.	.	.	16ddd\Jk	[
=107	=107	=107	=107	=107
*^	*	*	*^	*
4rc	[1GG	.	.	8ggg\	2rcyy	p
.	.	.	.	8raa	.	.
4F/	.	1	.	4raa	.	.
4D/	.	2	.	(<[2ff/	4dd\	.
4A-/	.	1	.	.	4cc\	.
*	*	*	*	*v	*v	*
=108	=108	=108	=108	=108	=108
4G/	4GG\]	.	.	8bn\L) 8ff]	.
.	.	.	.	8b\	.
4rc	4rEEyy	.	.	8dd\	.
.	.	.	.	8gg\J	.
(<2E-^\ (<2F#X (>2c	2rEEyy	.	.	8ff#X\L	>
.	.	.	.	8ee-\	.
.	.	.	.	8cc\	.
.	.	.	.	8an\J	]
*v	*v	*	*	*	*
=109	=109	=109	=109	=109
*	*	*	*^	*
8D\) 8G) (8Bn)	.	.	8g/	2rcyy	.
8r	.	.	8raa	.	.
4A-~\	.	.	4raa	.	.
!	!	!	!	!LO:TX:a:t=di-mi-nu-en-do:ext=c	!
!	!	!	!	!	!LO:HP:a
4F~\	.	.	(2a-/	(<4f\	>
4c~\	.	.	.	4e-\	.
!!LO:LB:g=original	!	!	!	!	!
=110	=110	=110	=110	=110	=110
*^	*	*	*	*	*
4Bn/	4rEE	.	.	8d/) 8g/L)	8ryy	.
.	.	.	.	8g/	8rcyy	.
4rc	2.GG\	.	.	8bn/	4rcyy	.
.	.	.	.	8dd/J	.	.
!	!	!	!LO:HP:a	!	!	!
(<(>2C^/ (>2F#X	.	.	>	8cc/L	2rcyy	.
.	.	.	.	8a-/	.	.
.	.	.	.	8f#X/	.	.
.	.	.	]]	8e-/J	.	.
*v	*v	*	*	*	*	*
=111	=111	=111	=111	=111	=111
4GG/) 4BBn) 4G)	.	.	4d/	2rcyy	]
4Bn~\	.	.	4raa	.	.
4G~\	.	.	[<2ff/	(>4dd\ 4ddd	.
4e-~\	.	.	.	4cc\ 4ccc	.
*	*	*	*v	*v	*
=112	=112	=112	=112	=112
4d\	.	.	8bn/L 8ff] 8bbn)	.
.	.	.	8G/	.
4GG'/	.	.	8Bn/	.
.	.	.	8d/J	>
((2AA-/ 2C	.	.	8c/L	.
.	.	.	8A-/	.
.	.	.	8c/	.
.	.	.	8en/J	]]
=113	=113	=113	=113	=113
8GG\L)) 8BBn	.	.	8f/	.
8f'\	.	.	8r	.
8d'\	.	.	4r	.
8Bn'\J	.	.	.	.
!	!	!	!LO:TX:b:i:t=legg.	!
8G'\L	.	.	4dd\ 4bbn 4ddd	.
8G'\	.	.	.	.
8D'\	.	.	4r	.
8BB'\J	.	.	.	.
=114	=114	=114	=114	=114
[2GG/	.	.	4ff\ 4ddd 4fff	.
.	.	.	4r	.
8GG/]	.	.	2r;	.
8r	.	.	.	.
4r;	.	.	.	.
!!LO:PB:g=original	!	!	!	!
=115||	=115||	=115||	=115||	=115||
*k[f#c#g#d#a#]	*	*	*k[f#c#g#d#a#]	*
*B:	*	*	*B:	*
*M3/4	*	*	*M3/4	*
*^	*	*	*^	*
*ped	*	*	*	*	*	*
!	!	!	!	!LO:TX:a:B:t=Lento sostenuto.	!	!
2.F#/ 2.B 2.d#	4rAA	.	.	2.f#/ 2.b 2.dd# 2.ff#	2rcyy	.
.	24FF#\LL	.	p <	.	.	.
.	24BB\	.	.	.	.	.
.	24D#\	.	.	.	.	.
.	24F#\	.	.	.	.	.
.	24B\	.	.	.	.	.
.	24d#\JJ	.	.	.	.	.
.	4rEEyy	.	[	.	24f#\LL	.
.	.	.	.	.	24b\	.
.	.	.	.	.	24dd#\	.
.	.	.	.	.	24ff#\	.
.	.	.	.	.	24dd#\	.
.	.	.	.	.	24b\JJ	.
*v	*v	*	*	*	*	*
*	*	*	*v	*v	*
=116	=116	=116	=116	=116
2.r	.	.	36f#/LLL	.
.	.	.	36d#/	.
.	.	.	36B/	.
.	.	.	36F#/	.
.	.	.	36B/	.
.	.	.	36d#/	.
.	.	.	36f#/	.
.	.	.	36b/	.
.	.	.	36dd#/JJJ	.
.	.	.	36ff#\LLL	.
.	.	.	36dd#\	.
.	.	.	36b\	.
.	.	.	36f#\	.
.	.	.	36b\	.
.	.	.	36dd#\	.
.	.	.	36ff#\	.
.	.	.	36bb\	.
.	.	.	36ddd#\	.
.	.	.	36fff#\	.
.	.	.	36ddd#\	.
.	.	.	36bb\	.
.	.	.	36ff#\	.
.	.	.	36bb\	.
.	.	.	36ddd#\	.
.	.	.	36fff#\	.
*	*	*	*8va	*
.	.	.	36bbb\	.
.	.	.	36dddd#\JJJ	.
=117	=117	=117	=117	=117
*Xped	*	*	*	*
2.r	.	.	8ffff#\	.
*	*	*	*X8va	*
.	.	.	8r	.
.	.	.	4r	.
.	.	.	4r	.
=118	=118	=118	=118	=118
(4BB'\ 4F#	.	.	(4d#'/ 4f#	p
4BB'\) 4F#	.	.	4B'/) 4d#	.
8r	.	.	8r	.
8BB\ 8F#	.	.	8d#/ 8f#	.
!!LO:LB:g=original	!	!	!	!
=119	=119	=119	=119	=119
*	*	*	*^	*
[2BB\ [2F#	.	.	4b/	[2d#\	<
.	.	.	8a#/L	.	.
.	.	.	8g#/J	.	.
8BB\] 8F#]	.	.	8f#/	8d#\]	[
16r	.	.	16ra	8rcyy	.
16BBB/ 16BB	.	.	16F#/ 16B 16d#	.	p
*	*	*	*v	*v	*
=120	=120	=120	=120	=120
(4BBB/ 4BB	.	.	((4F#/ [4B 4d#	.
8EE/L)	.	.	8G#/L)) 8B] 8e	.
(8GG#'/	.	.	(8G#'/ 8B 8d#	<
8EE'/	.	.	8G#'/ 8B 8e	.
8CC#'/J)	.	.	8B'/J) 8e 8g#	[[
=121	=121	=121	=121	=121
*^	*	*	*^	*
4rc	2.FF#\	.	.	4F#/ 4A# 4c#	4rcyy	.
(8D#/L	.	.	<	(8B#X/L	2A#\	.
8E/	.	.	.	8c#/	.	.
8.G#/	.	.	.	8.e/	.	.
16F#/Jk)	.	.	.	16d#/Jk)	.	.
=122	=122	=122	=122	=122	=122	=122
4BB\ 4F#	4rEEyy	.	[	4B/ 4d#	4rcyy	.
(4G#/	(2AA#\	.	.	(8e#X/L	4d#\	<
.	.	.	.	8f#/	.	.
*Xtremolo	*	*	*	*	*	*
12E#X/L	.	.	.	8g#/	4c##X\	.
12A#/	.	.	.	.	.	.
.	.	.	.	8a#/J	.	.
12E#/J	.	.	.	.	.	.
=123	=123	=123	=123	=123	=123	=123
2A#/)	2D#\)	.	.	(4g#/)	2d#\	.
.	.	.	.	4f#/)	.	.
(<4GG#/ 4D# [4G#	4rEEyy	.	.	(8.f#/L	4B#X\	>
.	.	.	.	16g#/Jk	.	]]
*v	*v	*	*	*	*	*
*	*	*	*v	*v	*
=124	=124	=124	=124	=124
4C#\) 4G#]	.	.	4c#/) 4e	.
8CC#/L 8C#	.	.	(8G#/L 8c# 8e	p
8GGG#/ 8GG#	.	.	8G#'/ 8Bn 8d#	.
8CC#/ 8C#	.	.	8G#'/ 8c# 8e	.
8FFF#/J 8FF#	.	.	8A#'/J) 8c# 8f#	.
!!LO:LB:g=original	!	!	!	!
=125	=125	=125	=125	=125
*	*	*	*^	*
(4FFF#/ 4FF#	.	.	2f#/	(4A#\ 4c#	.
4BBB/) 4BB	.	.	.	4B\) 4d#	.
!	!	!	!LO:TX:a:i:t=poco più mosso	!	!
(<(4B\ 4d#	.	.	(4dd#/	4f#\	p
=126	=126	=126	=126	=126	=126
*^	*	*	*	*	*
(4c#/)	4A#\	.	.	2cc#/	4f#\	.
(2B/)	4G#\	.	.	.	[2e\	.
.	4Gn\	.	.	4b/	.	.
=127	=127	=127	=127	=127	=127	=127
4c#/)	4F#\)	.	.	4a#/)	4e\]	.
4G#/	4E\	.	.	4g#/	4c#\	.
4A#/	4D#\	.	.	(4f##X/	4d#\	.
*v	*v	*	*	*	*	*
=128	=128	=128	=128	=128	=128
*	*	*	*	*^	*
4C#\ 4c#	.	.	2ee/)	4g#\	4ryy	.
(4Cn\ 4cn	.	.	.	(4e\	2an/	.
4BB\ 4B	.	.	(4dd#/	[4e#X\	.	.
*	*	*	*	*v	*v	*
=129	=129	=129	=129	=129	=129
4AA#\) 4A#	.	.	4cc##X/	4e#\]) 4a#X	.
4AAn\ 4An	.	.	4cc#X/)	4c#\ 4f#	.
!	!	!	!	!	!LO:DY:a
4GG#/ 4G#	.	.	4cc#/	4en\ 4g#	p
=130	=130	=130	=130	=130	=130
2GGn/ 2Gn	.	.	4e/ 4cc#	2b\	.
!	!	!	!	!	!LO:HP:a
.	.	.	(4e#X/ 4cc##X	.	<
(4FF#/ 4F#	.	.	4f#/ 4a# 4dd#	4rcyy	.
=131	=131	=131	=131	=131	=131
*	*	*	*	*^	*
4CC##X/ 4C##X	.	.	4ee#X/	2a#/	4g#\	.
4DD#/) 4D#	.	.	4ff#/)	.	4f#\	[
!	!	!	!LO:TX:b:i:t=poco riten.	!	!	!
!	!	!	!	!	!	!LO:DY:a
(4GG#/ 4G#	.	.	(>[4d#/ [4g# 4b	4rcyy	4ryy	p
*	*	*	*v	*v	*v	*
=132	=132	=132	=132	=132
4BBB/) 4BB	.	.	4d#/]) 4g#] 4dd#	.
!	!	!	!	!LO:HP:a
4GGG#/ 4GG#	.	.	(>4d#/ 4g# 4b	>
((4AAA#/ 4AA#	.	.	(<4c##X/ (<4e#X [>4a#	]
!!LO:LB:g=original	!	!	!	!
=133	=133	=133	=133	=133
*^	*	*	*^	*
4DD#/)) 4D#	4rEEyy	.	.	4d#/) 4f#) 4a#]	4rcyy	.
4c#/	2F#\	.	.	4a#/	2e\	.
!	!	!	!	!LO:TX:b:i:t=espr.	!	!
(8qc#/	.	.	.	(8qa#/	.	.
(8.B/L)	.	.	.	(8.g#/L)	.	.
16A#/Jk)	.	.	.	16f#/Jk)	.	.
*v	*v	*	*	*	*	*
*	*	*	*v	*v	*
=134	=134	=134	=134	=134
!	!	!	!LO:TX:a:B:t=a tempo, Lento	!
*tremolo	*	*	*	*
64BB\LLLL	.	.	4d#/ 4f#	p
64F#\	.	.	.	.
64BB\	.	.	.	.
64F#\	.	.	.	.
64BB\	.	.	.	.
64F#\	.	.	.	.
64BB\	.	.	.	.
64F#\	.	.	.	.
64BB\	.	.	.	.
64F#\	.	.	.	.
64BB\	.	.	.	.
64F#\	.	.	.	.
64BB\	.	.	.	.
64F#\	.	.	.	.
64BB\	.	.	.	.
64F#\	.	.	.	.
64BB\	.	.	4B/ 4d#	.
64F#\	.	.	.	.
64BB\	.	.	.	.
64F#\	.	.	.	.
64BB\	.	.	.	.
64F#\	.	.	.	.
64BB\	.	.	.	.
64F#\	.	.	.	.
64BB\	.	.	.	.
64F#\	.	.	.	.
64BB\	.	.	.	.
64F#\	.	.	.	.
64BB\	.	.	.	.
64F#\	.	.	.	.
64BB\	.	.	.	.
64F#\	.	.	.	.
64BB\	.	.	8r	.
64F#\	.	.	.	.
64BB\	.	.	.	.
64F#\	.	.	.	.
64BB\	.	.	.	.
64F#\	.	.	.	.
64BB\	.	.	.	.
64F#\	.	.	.	.
64BB\	.	.	8d#/ 8f#	<
64F#\	.	.	.	.
64BB\	.	.	.	.
64F#\	.	.	.	.
64BB\	.	.	.	.
64F#	.	.	.	.
64BB\	.	.	.	.
64F#\JJJJ	.	.	.	.
=135	=135	=135	=135	=135
*	*	*	*^	*
64BB\LLLL	.	.	4b/	[2d#\	.
64F#\	.	.	.	.	.
64BB\	.	.	.	.	.
64F#\	.	.	.	.	.
64BB\	.	.	.	.	.
64F#\	.	.	.	.	.
64BB\	.	.	.	.	.
64F#\	.	.	.	.	.
64BB\	.	.	.	.	.
64F#\	.	.	.	.	.
64BB\	.	.	.	.	.
64F#\	.	.	.	.	.
64BB\	.	.	.	.	.
64F#\	.	.	.	.	.
64BB\	.	.	.	.	.
64F#\	.	.	.	.	.
64BB\	.	.	8a#/L	.	[
64F#\	.	.	.	.	.
64BB\	.	.	.	.	.
64F#\	.	.	.	.	.
64BB\	.	.	.	.	.
64F#\	.	.	.	.	.
64BB\	.	.	.	.	.
64F#\	.	.	.	.	.
64BB\	.	.	8g#/J	.	.
64F#\	.	.	.	.	.
64BB\	.	.	.	.	.
64F#\	.	.	.	.	.
64BB\	.	.	.	.	.
64F#\	.	.	.	.	.
64BB\	.	.	.	.	.
64F#\JJJJ	.	.	.	.	.
64BB\LLLL	.	.	8f#/L	8d#\]	.
64An\	.	.	.	.	.
64BB\	.	.	.	.	.
64An\	.	.	.	.	.
64BB\	.	.	.	.	.
64An\	.	.	.	.	.
64BB\	.	.	.	.	.
64An\	.	.	.	.	.
64BB\	.	.	16r	8rDDDyy	.
64An\	.	.	.	.	.
64BB\	.	.	.	.	.
64An\	.	.	.	.	.
64BB\	.	.	16d#/Jk 16b 16dd#	.	.
64An\	.	.	.	.	.
64BB\	.	.	.	.	.
64An\JJJJ	.	.	.	.	.
*	*	*	*v	*v	*
=136	=136	=136	=136	=136
64BB\LLLL	.	.	(>4d#/ 4b 4dd#	.
64G#\	.	.	.	.
64BB\	.	.	.	.
64G#\	.	.	.	.
64BB\	.	.	.	.
64G#\	.	.	.	.
64BB\	.	.	.	.
64G#\	.	.	.	.
64BB\	.	.	.	.
64G#\	.	.	.	.
64BB\	.	.	.	.
64G#\	.	.	.	.
64BB\	.	.	.	.
64G#\	.	.	.	.
64BB\	.	.	.	.
64G#\	.	.	.	.
64BB\	.	.	8e/L) 8b 8ee	.
64G#\	.	.	.	.
64BB\	.	.	.	.
64G#\	.	.	.	.
64BB\	.	.	.	.
64G#\	.	.	.	.
64BB\	.	.	.	.
64G#\	.	.	.	.
64BB\	.	.	(>8d#~/ 8b 8dd#	<
64G#\	.	.	.	.
64BB\	.	.	.	.
64G#\	.	.	.	.
64BB\	.	.	.	.
64G#\	.	.	.	.
64BB\	.	.	.	.
64G#\	.	.	.	.
64BB\	.	.	8e~/ 8b 8ee	.
64G#\	.	.	.	.
64BB\	.	.	.	.
64G#\	.	.	.	.
64BB\	.	.	.	.
64G#\	.	.	.	.
64BB\	.	.	.	.
64G#\	.	.	.	.
64BB\	.	.	8g#~/J) 8b 8gg#	[[
64G#\	.	.	.	.
64BB\	.	.	.	.
64G#\	.	.	.	.
64BB\	.	.	.	.
64G#\	.	.	.	.
64BB\	.	.	.	.
64G#\JJJJ	.	.	.	.
=137	=137	=137	=137	=137
*	*	*	*^	*
64BB\LLLL 64F#	.	.	4c#/ 4a# 4cc#	2rcyy	.
64A#\	.	.	.	.	.
64BB\ 64F#	.	.	.	.	.
64A#\	.	.	.	.	.
64BB\ 64F#	.	.	.	.	.
64A#\	.	.	.	.	.
64BB\ 64F#	.	.	.	.	.
64A#\	.	.	.	.	.
64BB\ 64F#	.	.	.	.	.
64A#\	.	.	.	.	.
64BB\ 64F#	.	.	.	.	.
64A#\	.	.	.	.	.
64BB\ 64F#	.	.	.	.	.
64A#\	.	.	.	.	.
64BB\ 64F#	.	.	.	.	.
64A#\	.	.	.	.	.
64BB\ 64F#	.	.	8d#/L 8a# 8b#X	.	.
64A#\	.	.	.	.	.
64BB\ 64F#	.	.	.	.	.
64A#\	.	.	.	.	.
64BB\ 64F#	.	.	.	.	.
64A#\	.	.	.	.	.
64BB\ 64F#	.	.	.	.	.
64A#\	.	.	.	.	.
64BB\ 64F#	.	.	8e/ 8cc#	.	<
64A#\	.	.	.	.	.
64BB\ 64F#	.	.	.	.	.
64A#\	.	.	.	.	.
64BB\ 64F#	.	.	.	.	.
64A#\	.	.	.	.	.
64BB\ 64F#	.	.	.	.	.
64A#\	.	.	.	.	.
64BB\ 64F#	.	.	8.a#/ 8.ee	8.g#\L	.
64A#\	.	.	.	.	.
64BB\ 64F#	.	.	.	.	.
64A#\	.	.	.	.	.
64BB\ 64F#	.	.	.	.	.
64A#\	.	.	.	.	.
64BB\ 64F#	.	.	.	.	.
64A#\	.	.	.	.	.
64BB\ 64F#	.	.	.	.	.
64A#\	.	.	.	.	.
64BB\ 64F#	.	.	.	.	.
64A#\	.	.	.	.	.
64BB\ 64F#	.	.	16dd#/Jk	16f#\Jk	.
64A#\	.	.	.	.	.
64BB\ 64F#	.	.	.	.	.
64A#\JJJJ	.	.	.	.	.
=138	=138	=138	=138	=138	=138
64BB\LLLL 64F#	.	.	4f#/ 4b 4dd#	4ryy	.
64B\	.	.	.	.	.
64BB\ 64F#	.	.	.	.	.
64B\	.	.	.	.	.
64BB\ 64F#	.	.	.	.	.
64B\	.	.	.	.	.
64BB\ 64F#	.	.	.	.	.
64B\	.	.	.	.	.
64BB\ 64F#	.	.	.	.	.
64B\	.	.	.	.	.
64BB\ 64F#	.	.	.	.	.
64B\	.	.	.	.	.
64BB\ 64F#	.	.	.	.	.
64B\	.	.	.	.	.
64BB\ 64F#	.	.	.	.	.
64B\JJJJ	.	.	.	.	.
64AA#\LLLL	.	.	(8e#X/L 8ee#X	4dd#\	.
64G#\	.	.	.	.	.
64AA#\	.	.	.	.	.
64G#\	.	.	.	.	.
64AA#\	.	.	.	.	.
64G#\	.	.	.	.	.
64AA#\	.	.	.	.	.
64G#\	.	.	.	.	.
64AA#\	.	.	8f#/ 8ff#	.	.
64G#\	.	.	.	.	.
64AA#\	.	.	.	.	.
64G#\	.	.	.	.	.
64AA#\	.	.	.	.	.
64G#\	.	.	.	.	.
64AA#\	.	.	.	.	.
64G#\JJJJ	.	.	.	.	.
64AA#/LLLL	.	.	8g#/ 8gg#	4cc##X\	.
64E#X/	.	.	.	.	.
64AA#/	.	.	.	.	.
64E#/	.	.	.	.	.
64AA#/	.	.	.	.	.
64E#/	.	.	.	.	.
64AA#/	.	.	.	.	.
64E#/	.	.	.	.	.
64AA#/	.	.	8a#/J 8aa#	.	.
64E#/	.	.	.	.	.
64AA#/	.	.	.	.	.
64E#/	.	.	.	.	.
64AA#/	.	.	.	.	.
64E#/	.	.	.	.	.
64AA#/	.	.	.	.	.
64E#X/JJJJ	.	.	.	.	.
!!LO:LB:g=original	!	!	!	!	!
=139	=139	=139	=139	=139	=139
64D#\LLLL	.	.	8g#/L 8gg#	2dd#\	.
64A#\	.	.	.	.	.
64D#\	.	.	.	.	.
64A#\	.	.	.	.	.
64D#\	.	.	.	.	.
64A#\	.	.	.	.	.
64D#\	.	.	.	.	.
64A#\	.	.	.	.	.
64D#\	.	.	8f##X/J 8ff##X	.	.
64A#\	.	.	.	.	.
64D#\	.	.	.	.	.
64A#\	.	.	.	.	.
64D#\	.	.	.	.	.
64A#\	.	.	.	.	.
64D#\	.	.	.	.	.
64A#\	.	.	.	.	.
64D#\	.	.	4f#X/) 4ff#X	.	.
64A#\	.	.	.	.	.
64D#\	.	.	.	.	.
64A#\	.	.	.	.	.
64D#\	.	.	.	.	.
64A#\	.	.	.	.	.
64D#\	.	.	.	.	.
64A#\	.	.	.	.	.
64D#\	.	.	.	.	.
64A#\	.	.	.	.	.
64D#\	.	.	.	.	.
64A#\	.	.	.	.	.
64D#\	.	.	.	.	.
64A#\	.	.	.	.	.
64D#\	.	.	.	.	.
64A#\JJJJ	.	.	.	.	.
64GG#\LLLL 64D#	.	.	8.f#/L	4B#X\	>
64G#\	.	.	.	.	.
64GG#\ 64D#	.	.	.	.	.
64G#\	.	.	.	.	.
64GG#\ 64D#	.	.	.	.	.
64G#\	.	.	.	.	.
64GG#\ 64D#	.	.	.	.	.
64G#\	.	.	.	.	.
64GG#\ 64D#	.	.	.	.	.
64G#\	.	.	.	.	.
64GG#\ 64D#	.	.	.	.	.
64G#\	.	.	.	.	.
64GG#\ 64D#	.	.	16g#/Jk	.	]
64G#\	.	.	.	.	.
64GG#\ 64D#	.	.	.	.	.
64G#\JJJJ	.	.	.	.	.
*	*	*	*v	*v	*
*Xtremolo	*	*	*	*
=140	=140	=140	=140	=140
4C#\ 4G#	.	.	4c#/ 4e	.
(8C#/L	.	.	8G#/L 8c# 8e	p
8GG#/	.	.	(>8G#/ 8B 8d#	.
8C#/)	.	.	8G#/) 8c# 8e	.
8FF#/J	.	.	[8A#/J [8e [8f#	.
=141	=141	=141	=141	=141
4FF#/	.	.	4A#/] 4e] 4f#]	.
8BB/L	.	.	8F#/L 8B 8dn	.
(8FF#/	.	.	(8F#/ 8A# 8c#	.
8BB/)	.	.	8F#/) 8B 8d	.
[8EE/J	.	.	[8G#/J [8d [8e	.
=142	=142	=142	=142	=142
4EE/]	.	.	4G#/] 4d] 4e]	.
!	!	!	!LO:TX:a:i:t=poco rit.	!
8AAn/L	.	.	(>8E/L 8An 8cn	.
(8EE/	.	.	8E/ 8Gn 8B	.
8AA/)	.	.	8E/) 8A 8c	.
8DDn/J 8Dn	.	.	8F#/J 8c 8dn	.
=143||	=143||	=143||	=143||	=143||
*k[]	*	*	*k[]	*
*C:	*	*	*C:	*
*M4/4	*	*	*M4/4	*
*met(c)	*	*	*met(c)	*
!	!	!	!LO:TX:a:B:t=Maestoso.	!
4DD/ 4D	.	.	(<4F#X/ (4c [4d	p
*tremolo	*	*	*	*
64GGG/LLLL	.	p <	8G/) 8B) 8d]	.
64GG/	.	.	.	.
64GGG/	.	.	.	.
64GG/	.	.	.	.
64GGG/	.	.	.	.
64GG/	.	.	.	.
64GGG/	.	.	.	.
64GG/	.	.	.	.
64GGG/	.	.	8r	.
64GG/	.	.	.	.
64GGG/	.	.	.	.
64GG/	.	.	.	.
64GGG/	.	.	.	.
64GG/	.	.	.	.
64GGG/	.	.	.	.
64GG/	.	.	.	.
64GGG/	.	.	4r	.
64GG/	.	.	.	.
64GGG/	.	.	.	.
64GG/	.	.	.	.
64GGG/	.	.	.	.
64GG/	.	.	.	.
64GGG/	.	.	.	.
64GG/	.	.	.	.
64GGG/	.	.	.	.
64GG/	.	.	.	.
64GGG/	.	.	.	.
64GG/	.	.	.	.
64GGG/	.	.	.	.
64GG/	.	.	.	.
64GGG/	.	.	.	.
64GG/	.	.	.	.
64GGG/	.	.	8.G/L 8.g	mf
64GG/	.	.	.	.
64GGG/	.	.	.	.
64GG/	.	.	.	.
64GGG/	.	.	.	.
64GG/	.	.	.	.
64GGG/	.	.	.	.
64GG/	.	.	.	.
64GGG/	.	.	.	.
64GG/	.	.	.	.
64GGG/	.	.	.	.
64GG/	.	.	.	.
64GGG/	.	.	16G/Jk 16g	.
64GG/	.	.	.	.
64GGG/	.	.	.	.
64GG/JJJJ	.	[	.	.
=144	=144	=144	=144	=144
64GGG/LLLL	.	.	4G/ 4g	.
64GG/	.	.	.	.
64GGG/	.	.	.	.
64GG/	.	.	.	.
64GGG/	.	.	.	.
64GG/	.	.	.	.
64GGG/	.	.	.	.
64GG/	.	.	.	.
64GGG/	.	.	.	.
64GG/	.	.	.	.
64GGG/	.	.	.	.
64GG/	.	.	.	.
64GGG/	.	.	.	.
64GG/	.	.	.	.
64GGG/	.	.	.	.
64GG/	.	.	.	.
64GGG/	.	.	4G/ 4g	f
64GG/	.	.	.	.
64GGG/	.	.	.	.
64GG/	.	.	.	.
64GGG/	.	.	.	.
64GG/	.	.	.	.
64GGG/	.	.	.	.
64GG/	.	.	.	.
64GGG/	.	.	.	.
64GG/	.	.	.	.
64GGG/	.	.	.	.
64GG/	.	.	.	.
64GGG/	.	.	.	.
64GG/	.	.	.	.
64GGG/	.	.	.	.
64GG/JJJJ	.	.	.	.
64GGG/LLLL	.	.	4G/ 4g	.
64GG/	.	.	.	.
64GGG/	.	.	.	.
64GG/	.	.	.	.
64GGG/	.	.	.	.
64GG/	.	<	.	.
64GGG/	.	.	.	.
64GG/	.	.	.	.
64GGG/	.	.	.	.
64GG/	.	.	.	.
64GGG/	.	.	.	.
64GG/	.	.	.	.
64GGG/	.	.	.	.
64GG/	.	.	.	.
64GGG/	.	.	.	.
64GG/	.	.	.	.
64GGG/	.	.	4G/ 4g	.
64GG/	.	.	.	.
64GGG/	.	.	.	.
64GG/	.	.	.	.
64GGG/	.	.	.	.
64GG/	.	.	.	.
64GGG/	.	.	.	.
64GG/	.	.	.	.
64GGG/	.	.	.	.
64GG/	.	.	.	.
64GGG/	.	.	.	.
64GG/	.	.	.	.
64GGG/	.	.	.	.
64GG/	.	.	.	.
64GGG/	.	.	.	.
64GG/JJJJ	.	[[	.	.
!!LO:LB:g=original	!	!	!	!
=145	=145	=145	=145	=145
*	*	*	*tremolo	*
4GGG/ 4GG	.	.	64Bn/LLLL 64g	p
.	.	.	64G/	.
.	.	.	64B/ 64g	.
.	.	.	64G/	.
.	.	.	64B/ 64g	.
.	.	.	64G/	.
.	.	.	64B/ 64g	.
.	.	.	64G/	.
.	.	.	64B/ 64g	.
.	.	.	64G/	.
.	.	.	64B/ 64g	.
.	.	.	64G/	.
.	.	.	64B/ 64g	.
.	.	.	64G/	.
.	.	.	64B/ 64g	.
.	.	.	64G/JJJJ	.
([4AA-X^/	.	.	64c/LLLL 64g	.
.	.	.	64G/	.
.	.	.	64c/ 64g	.
.	.	.	64G/	.
.	.	.	64c/ 64g	.
.	.	.	64G/	.
.	.	.	64c/ 64g	.
.	.	.	64G/	.
.	.	.	64c/ 64g	.
.	.	.	64G/	.
.	.	.	64c/ 64g	.
.	.	.	64G/	.
.	.	.	64c/ 64g	.
.	.	.	64G/	.
.	.	.	64c/ 64g	.
.	.	.	64G/	.
8.AA-/L]	.	.	64c/ 64g	.
.	.	.	64G/	.
.	.	.	64c/ 64g	.
.	.	.	64G/	.
.	.	.	64c/ 64g	.
.	.	.	64G/	.
.	.	.	64c/ 64g	.
.	.	.	64G/	.
.	.	.	64c/ 64g	.
.	.	.	64G/	.
.	.	.	64c/ 64g	.
.	.	.	64G/	.
16GG/Jk	.	.	64c/ 64g	.
.	.	.	64G/	.
.	.	.	64c/ 64g	.
.	.	.	64G/JJJJ	.
4FF/	.	.	64c/LLLL 64a-X	.
.	.	.	64A-X/	.
.	.	.	64c/ 64a-	.
.	.	.	64A-/	.
.	.	.	64c/ 64a-	.
.	.	.	64A-/	.
.	.	.	64c/ 64a-	.
.	.	.	64A-/	.
.	.	.	64c/ 64a-	.
.	.	.	64A-/	.
.	.	.	64c/ 64a-	.
.	.	.	64A-/	.
.	.	.	64c/ 64a-	.
.	.	.	64A-/	.
.	.	.	64c/ 64a-	.
.	.	.	64A-X/JJJJ	.
=146	=146	=146	=146	=146
4EE-X/)	.	.	64c/LLLL 64g-X 64an	.
.	.	.	64An/	.
.	.	.	64c/ 64g- 64a	.
.	.	.	64A/	.
.	.	.	64c/ 64g- 64a	.
.	.	.	64A/	.
.	.	.	64c/ 64g- 64a	.
.	.	.	64A/	.
.	.	.	64c/ 64g- 64a	.
.	.	.	64A/	.
.	.	.	64c/ 64g- 64a	.
.	.	.	64A/	.
.	.	.	64c/ 64g- 64a	.
.	.	.	64A/	.
.	.	.	64c/ 64g- 64a	.
.	.	.	64A/	.
([4FF/	.	.	64c/ 64g- 64a	<
.	.	.	64A/	.
.	.	.	64c/ 64g- 64a	.
.	.	.	64A/	.
.	.	.	64c/ 64g- 64a	.
.	.	.	64A/	.
.	.	.	64c/ 64g- 64a	.
.	.	.	64A/	.
.	.	.	64c/ 64g- 64a	.
.	.	.	64A/	.
.	.	.	64c/ 64g- 64a	.
.	.	.	64A/	.
.	.	.	64c/ 64g- 64a	.
.	.	.	64A/	.
.	.	.	64c/ 64g- 64a	.
.	.	.	64A/	.
8.FF/L]	.	.	64c/ 64g- 64a	.
.	.	.	64A/	.
.	.	.	64c/ 64g- 64a	.
.	.	.	64A/	.
.	.	.	64c/ 64g- 64a	.
.	.	.	64A/	.
.	.	.	64c/ 64g- 64a	.
.	.	.	64A/	.
.	.	.	64c/ 64g- 64a	.
.	.	.	64A/	.
.	.	.	64c/ 64g- 64a	.
.	.	.	64A/	.
16EE-/Jk	.	.	64c/ 64g- 64a	.
.	.	.	64A/	.
.	.	.	64c/ 64g- 64a	.
.	.	.	64A/JJJJ	.
[4DD-X/	.	.	64d-X/LLLL 64g- 64b-X	.
.	.	.	64B-X/	.
.	.	.	64d-/ 64g- 64b-	.
.	.	.	64B-/	.
.	.	.	64d-/ 64g- 64b-	.
.	.	.	64B-/	.
.	.	.	64d-/ 64g- 64b-	.
.	.	.	64B-/	.
.	.	.	64d-/ 64g- 64b-	.
.	.	.	64B-/	.
.	.	.	64d-/ 64g- 64b-	.
.	.	.	64B-/	.
.	.	.	64d-/ 64g- 64b-	.
.	.	.	64B-/	.
.	.	.	64d-/ 64g- 64b-	.
.	.	.	64B-/JJJJ	.
=147	=147	=147	=147	=147
4DD-/])	.	.	64e-X/LLLL 64gn 64bn	.
.	.	.	64Bn/	.
.	.	.	64e-/ 64g 64b	.
.	.	.	64B/	.
.	.	.	64e-/ 64g 64b	.
.	.	.	64B/	.
.	.	.	64e-/ 64g 64b	.
.	.	.	64B/	.
.	.	.	64e-/ 64g 64b	.
.	.	.	64B/	.
.	.	.	64e-/ 64g 64b	.
.	.	.	64B/	.
.	.	.	64e-/ 64g 64b	.
.	.	.	64B/	.
.	.	.	64e-/ 64g 64b	.
.	.	.	64B/	.
[4EE-X^/ [4E-X	.	.	64e-/ 64g 64b	.
.	.	.	64B/	.
.	.	.	64e-/ 64g 64b	.
.	.	.	64B/	.
.	.	.	64e-/ 64g 64b	.
.	.	.	64B/	.
.	.	.	64e-/ 64g 64b	.
.	.	.	64B/	.
.	.	.	64e-/ 64g 64b	.
.	.	.	64B/	.
.	.	.	64e-/ 64g 64b	.
.	.	.	64B/	.
.	.	.	64e-/ 64g 64b	.
.	.	.	64B/	.
.	.	.	64e-/ 64g 64b	.
.	.	.	64B/	.
8.EE-/L] 8.E-]	.	.	64e-/ 64g 64b	.
.	.	.	64B/	.
.	.	.	64e-/ 64g 64b	.
.	.	.	64B/	.
.	.	.	64e-/ 64g 64b	.
.	.	.	64B/	.
.	.	.	64e-/ 64g 64b	.
.	.	.	64B/	.
.	.	.	64e-/ 64g 64b	.
.	.	.	64B/	.
.	.	.	64e-/ 64g 64b	.
.	.	.	64B/	.
16DD-X/Jk 16D-X	.	.	64e-/ 64g 64b	.
.	.	.	64B/	.
.	.	.	64e-/ 64g 64b	.
.	.	.	64B/JJJJ	.
8.CC/L 8.C	.	.	64e-/LLLL 64a-X 64cc	.
.	.	.	64c/	.
.	.	.	64e-/ 64a- 64cc	.
.	.	.	64c/	.
.	.	.	64e-/ 64a- 64cc	.
.	.	.	64c/	.
.	.	.	64e-/ 64a- 64cc	.
.	.	.	64c/	.
.	.	.	64e-/ 64a- 64cc	.
.	.	.	64c/	.
.	.	.	64e-/ 64a- 64cc	.
.	.	.	64c/	.
16BBB-X/Jk 16BB-X	.	.	64e-/ 64a- 64cc	.
.	.	.	64c/	.
.	.	.	64e-/ 64a- 64cc	.
.	.	.	64c/JJJJ	.
=148	=148	=148	=148	=148
4AAA-X/ 4AA-X	.	.	64e-X/LLLL 64a-X 64cc	.
.	.	.	64c/	.
.	.	.	64e-/ 64a- 64cc	.
.	.	.	64c/	.
.	.	.	64e-/ 64a- 64cc	.
.	.	.	64c/	.
.	.	.	64e-/ 64a- 64cc	.
.	.	.	64c/	.
.	.	.	64e-/ 64a- 64cc	.
.	.	.	64c/	.
.	.	.	64e-/ 64a- 64cc	.
.	.	.	64c/	.
.	.	.	64e-/ 64a- 64cc	.
.	.	.	64c/	.
.	.	.	64e-/ 64a- 64cc	.
.	.	.	64c/JJJJ	.
2AA-\ 2A-X	.	.	64f#X/LLLL 64cc 64dd	.
.	.	.	64d/	.
.	.	.	64f#/ 64cc 64dd	.
.	.	.	64d/	.
.	.	.	64f#/ 64cc 64dd	.
.	.	.	64d/	.
.	.	.	64f#/ 64cc 64dd	.
.	.	.	64d/	.
.	.	.	64f#/ 64cc 64dd	.
.	.	.	64d/	.
.	.	.	64f#/ 64cc 64dd	.
.	.	.	64d/	.
.	.	.	64f#/ 64cc 64dd	.
.	.	.	64d/	.
.	.	.	64f#/ 64cc 64dd	.
.	.	.	64d/	.
.	.	.	64f#/ 64cc 64dd	.
.	.	.	64d/	.
.	.	.	64f#/ 64cc 64dd	.
.	.	.	64d/	.
.	.	.	64f#/ 64cc 64dd	.
.	.	.	64d/	.
.	.	.	64f#/ 64cc 64dd	.
.	.	.	64d/	.
.	.	.	64f#/ 64cc 64dd	.
.	.	.	64d/	.
.	.	.	64f#/ 64cc 64dd	.
.	.	.	64d/	.
.	.	.	64f#/ 64cc 64dd	.
.	.	.	64d/	.
.	.	.	64f#/ 64cc 64dd	.
.	.	.	64d/	.
4AAA-/ 4AA-	.	.	64f#/ 64cc 64dd	.
.	.	.	64d/	.
.	.	.	64f#/ 64cc 64dd	.
.	.	.	64d/	.
.	.	.	64f#/ 64cc 64dd	.
.	.	.	64d/	.
.	.	.	64f#/ 64cc 64dd	.
.	.	.	64d/	.
.	.	.	64f#/ 64cc 64dd	.
.	.	.	64d/	.
.	.	.	64f#/ 64cc 64dd	.
.	.	.	64d/	.
.	.	.	64f#/ 64cc 64dd	.
.	.	.	64d/	.
.	.	.	64f#/ 64cc 64dd	.
.	.	.	64d/JJJJ	.
=149	=149	=149	=149	=149
64GGG/LLLL	.	.	64g/LLLL 64bn 64dd	.
64GG/	.	.	64d/	.
64GGG/	.	.	64g/ 64b 64dd	.
64GG/	.	.	64d/	.
64GGG/	.	.	64g/ 64b 64dd	.
64GG/	.	.	64d/	.
64GGG/	.	.	64g/ 64b 64dd	.
64GG/	.	.	64d/	.
64GGG/	.	.	64g/ 64b 64dd	.
64GG/	.	.	64d/	.
64GGG/	.	.	64g/ 64b 64dd	.
64GG/	.	.	64d/	.
64GGG/	.	.	64g/ 64b 64dd	.
64GG/	.	.	64d/	.
64GGG/	.	.	64g/ 64b 64dd	.
64GG/	.	.	64d/	.
64GGG/	.	.	64g/ 64b 64dd	.
64GG/	.	.	64d/	.
64GGG/	.	.	64g/ 64b 64dd	.
64GG/	.	.	64d/	.
64GGG/	.	.	64g/ 64b 64dd	.
64GG/	.	.	64d/	.
64GGG/	.	.	64g/ 64b 64dd	.
64GG/	.	.	64d/	.
64GGG/	.	.	64g/ 64b 64dd	.
64GG/	.	.	64d/	.
64GGG/	.	.	64g/ 64b 64dd	.
64GG/	.	.	64d/	.
64GGG/	.	.	64g/ 64b 64dd	.
64GG/	.	.	64d/	.
64GGG/	.	.	64g/ 64b 64dd	.
64GG/JJJJ	.	.	64d/JJJJ	.
8GGG/ 8GG	.	.	8g\ 8b 8dd	.
8r	.	.	8r	.
4r	.	.	8.G/L 8.g	.
.	.	.	16G/Jk 16g	.
!!LO:PB:g=original	!	!	!	!
=150	=150	=150	=150	=150
4r	.	.	4G/ 4g	.
4GGG/ 4GG	.	.	64Bn/LLLL 64g	.
.	.	.	64G/	.
.	.	.	64B/ 64g	.
.	.	.	64G/	.
.	.	.	64B/ 64g	.
.	.	.	64G/	.
.	.	.	64B/ 64g	.
.	.	.	64G/	.
.	.	.	64B/ 64g	.
.	.	.	64G/	.
.	.	.	64B/ 64g	.
.	.	.	64G/	.
.	.	.	64B/ 64g	.
.	.	.	64G/	.
.	.	.	64B/ 64g	.
.	.	.	64G/JJJJ	.
4AAAn/ 4AAn	.	.	64c/LLLL 64f#X 64g	<
.	.	.	64G/	.
.	.	.	64c/ 64f# 64g	.
.	.	.	64G/	.
.	.	.	64c/ 64f# 64g	.
.	.	.	64G/	.
.	.	.	64c/ 64f# 64g	.
.	.	.	64G/	.
.	.	.	64c/ 64f# 64g	.
.	.	.	64G/	.
.	.	.	64c/ 64f# 64g	.
.	.	.	64G/	.
.	.	.	64c/ 64f# 64g	.
.	.	.	64G/	.
.	.	.	64c/ 64f# 64g	.
.	.	.	64G/JJJJ	.
4BBBn/ 4BBn	.	.	64d/LLLL 64fn 64g	.
.	.	.	64G/	.
.	.	.	64d/ 64f 64g	.
.	.	.	64G/	.
.	.	.	64d/ 64f 64g	.
.	.	.	64G/	.
.	.	.	64d/ 64f 64g	.
.	.	.	64G/	.
.	.	.	64d/ 64f 64g	.
.	.	.	64G/	.
.	.	.	64d/ 64f 64g	.
.	.	.	64G/	.
.	.	.	64d/ 64f 64g	.
.	.	.	64G/	.
.	.	.	64d/ 64f 64g	.
.	.	.	64G/JJJJ	[
=151	=151	=151	=151	=151
*	*	*	*^	*
4CC/ 4C	.	.	4G/ 4c 4e 4g	2rcyy	.
4AAA/ 4AA	.	.	(<4c/ 4e (>4a (>4cc	.	f
4BBB/ 4BB	.	.	8.g/L) 8.b)	4B\) 4d#X	.
.	.	.	16f#X/Jk 16a	.	.
8.EE/L 8.E	.	.	[4e/ [4g	N(4B\	.
16DD/Jk 16D	.	.	.	.	.
=152	=152	=152	=152	=152	=152
8.CC/L 8.C	.	.	4G/N) 4c 4e] 4g]	4ryy	.
16BBB-X/Jk 16BB-X	.	.	.	.	.
8.AAA/L 8.AA	.	.	[4fn^/ [4a	[4A\ [4c#X	.
16GGG/Jk 16GG	.	.	.	.	.
8FFF/ 8FF	.	.	8.f/L] 8.a]	4A\] 4c#]	.
8r	.	.	.	.	.
.	.	.	16e/Jk 16g	.	.
4FFF/ 4FF	.	.	8.d/L 8.f	4A\	.
.	.	.	16cn/Jk 16e	.	.
=153	=153	=153	=153	=153	=153
4AAA-X/ 4AA-X	.	.	4F/ 4c 4d	4rcyy	.
4GGG/ 4GG	.	.	4e/	(4B-X\ [>4c	.
4FFF/ 4FF	.	.	8.g/L	4A-X\) 4c]	.
.	.	.	16f/Jk	.	.
4CC/ 4C	.	.	4c/ (4e	8.A-\L N[>8.c	.
.	.	.	.	16G\Jk	.
=154	=154	=154	=154	=154	=154
4DD/ 4D	.	.	4F#X/ 4cN] 4d)	2rcyy	.
4GGG/ 4GG	.	.	4B/ 4d 4g	.	.
4DDD/ 4DD	.	.	(8.b/L	4c\ 4f#X	.
.	.	.	16a/Jk	.	.
4GGG/ 4GG	.	.	8B/) 8d 8g	4rcyy	.
.	.	.	8rcc	.	.
!!LO:LB:g=original	!	!	!	!	!
=155	=155	=155	=155	=155	=155
4CC/ 4C	.	.	4g\ 4cc 4ee 4gg	2rcyy	.
4AAA/ 4AA	.	.	(<4cc\ 4ee 4aa (>4ccc	.	ff
4BBB/ 4BB	.	.	8.gg/L 8.bb))	4b\ 4dd#X	.
.	.	.	16ff#X/Jk 16aa	.	.
8.EE/L 8.E	.	.	4ee/ 4gg	4b\	.
16DD/Jk 16D	.	.	.	.	.
=156	=156	=156	=156	=156	=156
8.CC/L 8.C	.	.	4g\ 4cc 4ee 4gg	4rcyy	.
16BBB-X/Jk 16BB-X	.	.	.	.	.
8.AAA/L 8.AA	.	.	[4cc#X^/ [4ff [4aa	[4a\	.
16GGG/Jk 16GG	.	.	.	.	.
8FFF/ 8FF	.	.	8.cc#/L] 8.ff] 8.aa]	8.a\L]	.
8r	.	.	.	.	.
.	.	.	16ee/Jk 16gg	16g\Jk	.
4FFF/ 4FF	.	.	8.f\L 8.dd 8.ff	4rcyy	.
.	.	.	16e\Jk 16ccn 16ee	.	.
=157	=157	=157	=157	=157	=157
4AAA-X/ 4AA-X	.	.	4d/ 4cc 4dd	2rcyy	.
4GGG/ 4GG	.	.	4e/ 4b-X 4cc 4ee	.	.
4FFF/ 4FF	.	.	8.gg/L	4a-X\ 4cc	.
.	.	.	16ff/Jk	.	.
4CC/ 4C	.	.	[4cc/ [4ee	[4g\	.
=158	=158	=158	=158	=158	=158
4DD/ 4D	.	.	4g\] 4cc\] 4ee]	4ryy	.
4DDD/ 4DD	.	.	12e~/L 12ee	4f#X\ 4cc	.
.	.	.	12d~/ 12dd	.	.
.	.	.	12c~/J 12f# 12cc	.	.
4GGG/ 4GG	.	.	(8.ee/L	4fn\ 4b	.
.	.	.	16dd/Jk	.	.
8.CC/L 8.C	.	>	8e/) 8g 8cc	4rcyy	.
.	.	.	8ra	.	.
16BBBn/Jk 16BBn	.	]]	.	.	.
=159	=159	=159	=159	=159	=159
4AAA/ 4AA	.	.	4raa	4rcyy	p
4AA\ 4A	.	.	[<4c/ [4cc	8.g\L	.
.	.	.	.	16e\Jk	.
4GG/ 4G	.	.	8.c/L] 8.cc]	2f\	.
.	.	.	((16A#X/Jk 16a#X	.	.
4GGG/ 4GG	.	.	4B/)) 4b	.	.
!!LO:LB:g=original	!	!	!	!	!
=160	=160	=160	=160	=160	=160
!	!	!	!LO:TX:t=P:problem:na źródle naklejony fragment papieru/taśmy	!	!
4FFF/ 4FF	.	.	4ra	4ryy	.
4FF/ 4F	.	.	4A/ [4a	8.e\L	.
.	.	.	.	(<16c#X\Jk	.
4EE/ 4E	.	.	8.A/L 8.a]	2d\)	.
.	.	.	((16F#X/Jk 16f#X	.	.
4EEE/ 4EE	.	.	4G/)) 4g	.	.
=161	=161	=161	=161	=161	=161
4DDD/ 4DD	.	.	4ra	4ryy	.
!	!	!	!	!	!LO:HP:a
((4DD/ 4D	.	.	2F/ 2f	8.c\L	<
.	.	.	.	16A\Jk	.
[4DD-X/)) [4D-X	.	.	.	4B-X\	.
12DD-/L] 12D-]	.	.	(<4G/ 4B- (>4e (>4g	4rcyy	.
12CC/ 12C	.	.	.	.	.
12BBB-X/J 12BB-X	.	.	.	.	[
*	*	*	*v	*v	*
=162	=162	=162	=162	=162
[4AAA-X/ [4AA-X	.	.	4A-X/) 4d-X 4f) 4a-X)	.
!	!	!	!	!LO:HP:a
12AAA-/L] 12AA-]	.	.	(((4Bn/ 4dn 4an 4bn	>
12GGG/ 12GG	.	.	.	.
12FFF/J 12FF	.	.	.	.
8CCC/ 8CC	.	.	8c/))) 8e 8g 8cc	.
8r	.	.	8r	]
8.CC/L 8.C	.	.	4r	.
16DD/Jk 16D	.	.	.	.
=163	=163	=163	=163	=163
*	*	*	*^	*
4EE-X/ 4E-X	.	.	4ra	4rcyy	.
(4E-\ 4e-X	.	.	[<4g/ [(4gg	8.dd\L	pp
.	.	.	.	16b\Jk	.
4D\) 4d	.	.	8.g/L] 8.gg]	2cc\	.
.	.	.	((16e/Jk 16ee)	.	.
4DD/ 4D	.	.	4f/)) 4ff	.	.
=164	=164	=164	=164	=164	=164
4CC/ 4C	.	.	4ra	4ryy	.
(4C\ 4c	.	.	[<4e-X/ [4ee-X	8.b-X\L	.
.	.	.	.	16g\Jk	.
4BB-X\) 4B-X	.	.	8.e-/L] 8.ee-]	2a-X\	.
.	.	.	(16c#X/Jk (16cc#X	.	.
4BBB-X/ 4BB-	.	.	4d/) 4dd)	.	.
!!LO:LB:g=original	!	!	!	!	!
=165	=165	=165	=165	=165	=165
4AAA/ 4AA	.	.	4ra	4ryy	.
(4AA\ 4A	.	.	[<4c/ [4cc	8.g\L	.
.	.	.	.	16e\Jk	.
!	!	!	!	!	!LO:HP:a
4AA-X\) 4A-X	.	.	8.c/L] 8.cc]	[4f\	<
.	.	.	(16B/Jk 16b	.	.
4AAA-X/ 4AA-	.	.	8.c/L) 8.cc	8.f\]	[
.	.	.	16d/Jk 16cc 16dd	16rcyy	.
*	*	*	*v	*v	*
=166	=166	=166	=166	=166
4GGG/ 4GG	.	.	4e/ 4cc 4ee	.
(4GG/ 4G	.	.	(4f/ 4b 4dd	>
4CC/) 4C	.	.	4e/) 4g 4cc	]
8.EEE/L 8.EE	.	.	4r	.
16FFF/Jk 16FF	.	.	.	.
=167	=167	=167	=167	=167
*	*	*	*^	*
4GGG/ 4GG	.	.	4ra	4rcyy	pp
4GG/ 4G	.	.	[<4B/ [4b	8.f\L	.
.	.	.	.	16d#X\Jk	.
4FF#X/ 4F#X	.	.	8.B/L] 8.b]	2e\	.
.	.	.	(16G#X/Jk 16g#X	.	.
4FFF#X/ 4FF#	.	.	4A/) 4a	.	.
=168	=168	=168	=168	=168	=168
4FFFn/ 4FFn	.	.	4ra	4ryy	.
4FF/ 4Fn	.	.	[<4A/ [4a	8.e\L	.
.	.	.	.	16c#X\Jk	.
4EE/ 4E	.	.	8.A/L] 8.a]	2d\	.
.	.	.	(16F#X/Jk 16f#X	.	.
4EEE/ 4EE	.	.	4G/) 4g	.	.
=169	=169	=169	=169	=169	=169
*^	*	*	*	*	*
4DDD/ 4DD	2.ryy	.	.	4ra	4ryy	.
4DD/ 4D	.	.	.	2F/ 2f	(8.c\L	.
.	.	.	.	.	16A\Jk	.
4rcyy	.	.	.	.	4B-X\)	.
8.F/L	4DD-X\ 4D-X	.	.	4B-X/ [4f	4rcyy	.
16G/Jk	.	.	.	.	.	.
*v	*v	*	*	*	*	*
!!LO:LB:g=original	!	!	!	!	!
=170	=170	=170	=170	=170	=170
4r	.	.	4A-X/ 4c 4f]	4rcyy	.
!	!	!	!	!	!LO:HP:a
4CC/ 4C	.	.	(>4c/ [4f	8.A-\L	<
.	.	.	.	N(<16G\Jk	.
4r	.	.	4A-/N) [>4d-X) 4f_	2rcyy	[
!	!	!	!	!	!LO:HP:a
4BBB/ 4BB	.	.	8.A-/L 8.d-] 8.f]	.	>
.	.	.	16G/Jk 16c 16e	.	]]
=171	=171	=171	=171	=171	=171
4CC/ 4C	.	.	4G/ 4c 4e	4rcyy	.
*	*	*	*clefF4	*	*
64CCC/LLLL	.	.	[4A-X/	(4C\ 4E-X	pp
64CC/	.	.	.	.	.
64CCC/	.	.	.	.	.
64CC/	.	.	.	.	.
64CCC/	.	.	.	.	.
64CC/	.	.	.	.	.
64CCC/	.	.	.	.	.
64CC/	.	.	.	.	.
64CCC/	.	.	.	.	.
64CC/	.	.	.	.	.
64CCC/	.	.	.	.	.
64CC/	.	.	.	.	.
64CCC/	.	.	.	.	.
64CC/	.	.	.	.	.
64CCC/	.	.	.	.	.
64CC/	.	.	.	.	.
64CCC/	.	.	8.A-/L]	4BB\ 4Dn	.
64CC/	.	.	.	.	.
64CCC/	.	.	.	.	.
64CC/	.	.	.	.	.
64CCC/	.	.	.	.	.
64CC/	.	.	.	.	.
64CCC/	.	.	.	.	.
64CC/	.	.	.	.	.
64CCC/	.	.	.	.	.
64CC/	.	.	.	.	.
64CCC/	.	.	.	.	.
64CC/	.	.	.	.	.
64CCC/	.	.	(16F#X/Jk	.	.
64CC/	.	.	.	.	.
64CCC/	.	.	.	.	.
64CC/	.	.	.	.	.
64CCC/	.	.	4G/)	4BB-X\ 4D-X	.
64CC/	.	.	.	.	.
64CCC/	.	.	.	.	.
64CC/	.	.	.	.	.
64CCC/	.	.	.	.	.
64CC/	.	.	.	.	.
64CCC/	.	.	.	.	.
64CC/	.	.	.	.	.
64CCC/	.	.	.	.	.
64CC/	.	.	.	.	.
64CCC/	.	.	.	.	.
64CC/	.	.	.	.	.
64CCC/	.	.	.	.	.
64CC/	.	.	.	.	.
64CCC/	.	.	.	.	.
64CC/JJJJ	.	.	.	.	.
=172	=172	=172	=172	=172	=172
64CCC/LLLL	.	.	4rc	4AA\) 4C	.
64CC/	.	.	.	.	.
64CCC/	.	.	.	.	.
64CC/	.	.	.	.	.
64CCC/	.	.	.	.	.
64CC/	.	.	.	.	.
64CCC/	.	.	.	.	.
64CC/	.	.	.	.	.
64CCC/	.	.	.	.	.
64CC/	.	.	.	.	.
64CCC/	.	.	.	.	.
64CC/	.	.	.	.	.
64CCC/	.	.	.	.	.
64CC/	.	.	.	.	.
64CCC/	.	.	.	.	.
64CC/	.	.	.	.	.
64CCC/	.	.	[4E-X/	8.AA-X\L 8.C	.
64CC/	.	.	.	.	.
64CCC/	.	.	.	.	.
64CC/	.	.	.	.	.
64CCC/	.	.	.	.	.
64CC/	.	.	.	.	.
64CCC/	.	.	.	.	.
64CC/	.	.	.	.	.
64CCC/	.	.	.	.	.
64CC/	.	.	.	.	.
64CCC/	.	.	.	.	.
64CC/	.	.	.	.	.
64CCC/	.	.	.	16GG\Jk 16BB-X	.
64CC/	.	.	.	.	.
64CCC/	.	.	.	.	.
64CC/JJJJ	.	.	.	.	.
64CCC/LLLL	.	.	8.E-/L]	4FF#X\ 4AAn	.
64CC/	.	.	.	.	.
64CCC/	.	.	.	.	.
64CC/	.	.	.	.	.
64CCC/	.	.	.	.	.
64CC/	.	.	.	.	.
64CCC/	.	.	.	.	.
64CC/	.	.	.	.	.
64CCC/	.	.	.	.	.
64CC/	.	.	.	.	.
64CCC/	.	.	.	.	.
64CC/	.	.	.	.	.
64CCC/	.	.	(16C#X/Jk	.	.
64CC/	.	.	.	.	.
64CCC/	.	.	.	.	.
64CC/	.	.	.	.	.
64CCC/	.	.	4D/	4FFn\ 4AA-X	.
64CC/	.	.	.	.	.
64CCC/	.	.	.	.	.
64CC/	.	.	.	.	.
64CCC/	.	.	.	.	.
64CC/	.	.	.	.	.
64CCC/	.	.	.	.	.
64CC/	.	.	.	.	.
64CCC/	.	.	.	.	.
64CC/	.	.	.	.	.
64CCC/	.	.	.	.	.
64CC/	.	.	.	.	.
64CCC/	.	.	.	.	.
64CC/	.	.	.	.	.
64CCC/	.	.	.	.	.
64CC/JJJJ	.	.	.	.	.
=173	=173	=173	=173	=173	=173
*^	*	*	*	*	*
8CCC/	4rEEyy	.	.	8EE/) 8GG 8C	4rEEyy	.
8rC	.	.	.	8rC	.	.
*	*	*	*	*clefG2	*	*
(4C/	[2.CC\	.	.	[<4A-X/ [4a-X	4e-X\	.
4BB/	.	.	.	8.A-/L] 8.a-]	4d\	.
.	.	.	.	((16F#X/Jk 16f#X	.	.
4BB-X/	.	.	.	4G/)) 4g	4d-X\	.
=174	=174	=174	=174	=174	=174	=174
4AA/)	1CC_	.	.	4ra	4ryy	.
(4AA-X/	.	.	.	(<4Fn/ [4fn	4c\	.
4GG/	.	.	.	8.F/L 8.f]	4B\	.
.	.	.	.	16D#X/Jk 16d#X	.	.
4FF#X/	.	.	.	4E/) 4e	4B-X\	.
*	*	*	*	*clefF4	*	*
!!LO:LB:g=original	!	!	!	!	!	!
=175	=175	=175	=175	=175	=175	=175
4GG/	1CC])	.	.	4rC	4ryy	.
(4C/	.	.	.	[4E/ [4e	2.A-X\	<
4AA-X/	.	.	.	8.E/L] 8.e]	.	.
.	.	.	.	((>16C#X/Jk 16c#X	.	.
4FF/)	.	.	.	4D/)) 4d	.	[[
=176	=176	=176	=176	=176	=176	=176
4CC/	1CC	.	.	4rC	4ryy	.
(4C/	.	.	.	[4E/ [4e	2.A-X\	<
4AA-X/	.	.	.	8.E/L] 8.e]	.	.
.	.	.	.	((16C#X/Jk 16c#X	.	.
4FF/)	.	.	.	4D/)) 4d	.	[
*v	*v	*	*	*	*	*
*	*	*	*v	*v	*
=177	=177	=177	=177	=177
*ped	*	*	*	*
64CC/LLLL	.	.	4r	.
64GG/	.	.	.	.
64CC/	.	.	.	.
64GG/	.	.	.	.
64CC/	.	.	.	.
64GG/	.	.	.	.
64CC/	.	.	.	.
64GG/	.	.	.	.
64CC/	.	.	.	.
64GG/	.	.	.	.
64CC/	.	.	.	.
64GG/	.	.	.	.
64CC/	.	.	.	.
64GG/	.	.	.	.
64CC/	.	.	.	.
64GG/	.	.	.	.
64CC/	.	.	[2.E\ [2.G [2.c [2.e	ppp
64GG/	.	.	.	.
64CC/	.	.	.	.
64GG/	.	.	.	.
64CC/	.	.	.	.
64GG/	.	.	.	.
64CC/	.	.	.	.
64GG/	.	.	.	.
64CC/	.	.	.	.
64GG/	.	.	.	.
64CC/	.	.	.	.
64GG/	.	.	.	.
64CC/	.	.	.	.
64GG/	.	.	.	.
64CC/	.	.	.	.
64GG/JJJJ	.	.	.	.
64CC/LLLL	.	.	.	.
64GG/	.	.	.	.
64CC/	.	.	.	.
64GG/	.	.	.	.
64CC/	.	.	.	.
64GG/	.	.	.	.
64CC/	.	.	.	.
64GG/	.	.	.	.
64CC/	.	.	.	.
64GG/	.	.	.	.
64CC/	.	.	.	.
64GG/	.	.	.	.
64CC/	.	.	.	.
64GG/	.	.	.	.
64CC/	.	.	.	.
64GG/	.	.	.	.
64CC/	.	.	.	.
64GG/	.	.	.	.
64CC/	.	.	.	.
64GG/	.	.	.	.
64CC/	.	.	.	.
64GG/	.	.	.	.
64CC/	.	.	.	.
64GG/	.	.	.	.
64CC/	.	.	.	.
64GG/	.	.	.	.
64CC/	.	.	.	.
64GG/	.	.	.	.
64CC/	.	.	.	.
64GG/	.	.	.	.
64CC/	.	.	.	.
64GG/JJJJ	.	.	.	.
=178	=178	=178	=178	=178
64CC/LLLL	.	.	4E\] 4G] 4c] 4e]	.
64GG/	.	.	.	.
64CC/	.	.	.	.
64GG/	.	.	.	.
64CC/	.	.	.	.
64GG/	.	.	.	.
64CC/	.	.	.	.
64GG/	.	.	.	.
64CC/	.	.	.	.
64GG/	.	.	.	.
64CC/	.	.	.	.
64GG/	.	.	.	.
64CC/	.	.	.	.
64GG/	.	.	.	.
64CC/	.	.	.	.
64GG/	.	.	.	.
64CC/	.	.	(2E'\ 2G 2c 2e	.
64GG/	.	.	.	.
64CC/	.	.	.	.
64GG/	.	.	.	.
64CC/	.	.	.	.
64GG/	.	.	.	.
64CC/	.	.	.	.
64GG/	.	.	.	.
64CC/	.	.	.	.
64GG/	.	.	.	.
64CC/	.	.	.	.
64GG/	.	.	.	.
64CC/	.	.	.	.
64GG/	.	.	.	.
64CC/	.	.	.	.
64GG/JJJJ	.	.	.	.
64CC/LLLL	.	.	.	.
64GG/	.	.	.	.
64CC/	.	.	.	.
64GG/	.	.	.	.
64CC/	.	.	.	.
64GG/	.	.	.	.
64CC/	.	.	.	.
64GG/	.	.	.	.
64CC/	.	.	.	.
64GG/	.	.	.	.
64CC/	.	.	.	.
64GG/	.	.	.	.
64CC/	.	.	.	.
64GG/	.	.	.	.
64CC/	.	.	.	.
64GG/	.	.	.	.
64CC/	.	.	4E'\) 4G 4c 4e	.
64GG/	.	.	.	.
64CC/	.	.	.	.
64GG/	.	.	.	.
64CC/	.	.	.	.
64GG/	.	.	.	.
64CC/	.	.	.	.
64GG/	.	.	.	.
64CC/	.	.	.	.
64GG/	.	.	.	.
64CC/	.	.	.	.
64GG/	.	.	.	.
64CC/	.	.	.	.
64GG/	.	.	.	.
64CC/	.	.	.	.
64GG/JJJJ	.	.	.	.
=179	=179	=179	=179	=179
64CC/LLLL	.	.	1E; 1G 1c 1e	.
64GG/	.	.	.	.
64CC/	.	.	.	.
64GG/	.	.	.	.
64CC/	.	.	.	.
64GG/	.	.	.	.
64CC/	.	.	.	.
64GG/	.	.	.	.
64CC/	.	.	.	.
64GG/	.	.	.	.
64CC/	.	.	.	.
64GG/	.	.	.	.
64CC/	.	.	.	.
64GG/	.	.	.	.
64CC/	.	.	.	.
64GG/	.	.	.	.
64CC/	.	.	.	.
64GG/	.	.	.	.
64CC/	.	.	.	.
64GG/	.	.	.	.
64CC/	.	.	.	.
64GG/	.	.	.	.
64CC/	.	.	.	.
64GG/	.	.	.	.
64CC/	.	.	.	.
64GG/	.	.	.	.
64CC/	.	.	.	.
64GG/	.	.	.	.
64CC/	.	.	.	.
64GG/	.	.	.	.
64CC/	.	.	.	.
64GG/JJJJ	.	.	.	.
64CC;/LLLL	.	.	.	.
64GG/	.	.	.	.
64CC/	.	.	.	.
64GG/	.	.	.	.
64CC/	.	.	.	.
64GG/	.	.	.	.
64CC/	.	.	.	.
64GG/	.	.	.	.
64CC/	.	.	.	.
64GG/	.	.	.	.
64CC/	.	.	.	.
64GG/	.	.	.	.
64CC/	.	.	.	.
64GG/	.	.	.	.
64CC/	.	.	.	.
64GG/	.	.	.	.
64CC/	.	.	.	.
64GG/	.	.	.	.
64CC/	.	.	.	.
64GG/	.	.	.	.
64CC/	.	.	.	.
64GG/	.	.	.	.
64CC/	.	.	.	.
64GG/	.	.	.	.
64CC/	.	.	.	.
64GG/	.	.	.	.
64CC/	.	.	.	.
64GG/	.	.	.	.
64CC/	.	.	.	.
64GG/	.	.	.	.
64CC/	.	.	.	.
64GG/JJJJ	.	.	.	.
*Xped	*	*	*	*
==	==	==	==	==
*-	*-	*-	*-	*-
!!!system-decoration: {(s1,s2)}
!!!RDF**kern: N = linked
!!!RDF**kern: > = above
!!!RDF**kern: < = below
!!!ENC: Solarz Mateusz
!!!END: 2022-07-19
!!!ENC: Natalia Wrzos
!!!END: 2022-08-22
!!!YEC: Copyright 2022 Narodowy Instytut Fryderyka Chopina (https://polishscores.org)
!!!YEM: License CC-BY-4.0 (https://creativecommons.org/licenses/by/4.0)
